DEF sticky()
;* -------------------------------------
;* NX CAM Robotics 12.0.0.27 to Kuka-Krl
;* CREATED : 23/12/2020 10:24:00 by Hugo_Danielson
;* CELL    : Sucka.prt
;* ROBOT   : kuka_kr300_r2500_on_rail
;* -------------------------------------
;FOLD INI
  ;FOLD BASISTECH INI
    GLOBAL INTERRUPT DECL 3 WHEN $STOPMESS==TRUE DO IR_STOPM ( )
    INTERRUPT ON 3
    BAS (#INITMOV,0 )
  ;ENDFOLD (BASISTECH INI)
  ;FOLD USER INI
  ;Make your modifications here
  ;ENDFOLD (USER INI)
;ENDFOLD (INI)
;-- ToolPath CAVITY_MILL
$BASE={X -475.899,Y 1478.421,Z -88.476,A 0.000,B -0.000,C 0.000}
$IPO_MODE=#BASE
$TOOL={X -438.599,Y -1.235,Z 56.372,A -89.918,B 0.083,C -135.000}
PTP {A1 0.000,A2 -90.000,A3 90.000,A4 0.000,A5 90.000,A6 0.000,E1 0.000,E2 850.000,E3 0.000,E4 0.000,E5 0.000,E6 0.000}
PTP {X 498.133,Y -27.054,Z 10.500,A -79.665,B -0.000,C -0.000,E1 0.000,E2 850.000,E3 0.000,E4 0.000,E5 0.000,E6 0.000}
PTP {X 498.133,Y -27.054,Z 2.091,A -79.665,B -0.000,C -0.000,E1 0.000,E2 850.000,E3 0.000,E4 0.000,E5 0.000,E6 0.000}
$VEL.CP = 0.0042
LIN {X 498.133,Y -27.054,Z -0.909,A -79.665,B -0.000,C -0.000,E1 0.000,E2 850.000,E3 0.000,E4 0.000,E5 0.000,E6 0.000}
LIN {X 488.791,Y -8.555,Z -0.909,A -79.665,B -0.000,C -0.000,E1 0.000,E2 850.000,E3 0.000,E4 0.000,E5 0.000,E6 0.000}
LIN {X 504.634,Y -6.320,Z -0.909,A -79.665,B -0.000,C -0.000,E1 0.000,E2 850.000,E3 0.000,E4 0.000,E5 0.000,E6 0.000}
LIN {X 507.293,Y -5.835,Z -0.909,A -79.665,B -0.000,C -0.000,E1 0.000,E2 850.000,E3 0.000,E4 0.000,E5 0.000,E6 0.000}
LIN {X 509.905,Y -5.138,Z -0.909,A -75.054,B -0.000,C 0.000,E1 0.000,E2 850.000,E3 0.000,E4 0.000,E5 0.000,E6 0.000}
LIN {X 512.452,Y -4.233,Z -0.909,A -70.444,B -0.000,C -0.000,E1 0.000,E2 850.000,E3 0.000,E4 0.000,E5 0.000,E6 0.000}
LIN {X 514.918,Y -3.126,Z -0.909,A -65.833,B -0.000,C 0.000,E1 0.000,E2 850.000,E3 0.000,E4 0.000,E5 0.000,E6 0.000}
LIN {X 517.287,Y -1.825,Z -0.909,A -61.223,B -0.000,C 0.000,E1 0.000,E2 850.000,E3 0.000,E4 0.000,E5 0.000,E6 0.000}
LIN {X 518.813,Y -1.017,Z -0.909,A -62.098,B -0.000,C 0.000,E1 0.000,E2 850.000,E3 0.000,E4 0.000,E5 0.000,E6 0.000}
LIN {X 520.416,Y -0.378,Z -0.909,A -68.283,B -0.000,C -0.000,E1 0.000,E2 850.000,E3 0.000,E4 0.000,E5 0.000,E6 0.000}
LIN {X 522.080,Y 0.084,Z -0.909,A -74.467,B -0.000,C 0.000,E1 0.000,E2 850.000,E3 0.000,E4 0.000,E5 0.000,E6 0.000}
LIN {X 523.783,Y 0.364,Z -0.909,A -80.652,B -0.000,C 0.000,E1 0.000,E2 850.000,E3 0.000,E4 0.000,E5 0.000,E6 0.000}
LIN {X 525.507,Y 0.460,Z -0.909,A -86.837,B -0.000,C -0.000,E1 0.000,E2 850.000,E3 0.000,E4 0.000,E5 0.000,E6 0.000}
LIN {X 558.470,Y 0.459,Z -0.909,A -90.002,B -0.000,C 0.000,E1 0.000,E2 850.000,E3 0.000,E4 0.000,E5 0.000,E6 0.000}
LIN {X 560.196,Y 0.363,Z -0.909,A -93.169,B -0.000,C 0.000,E1 0.000,E2 850.000,E3 0.000,E4 0.000,E5 0.000,E6 0.000}
LIN {X 561.900,Y 0.082,Z -0.909,A -99.360,B -0.000,C -0.000,E1 0.000,E2 850.000,E3 0.000,E4 0.000,E5 0.000,E6 0.000}
LIN {X 563.565,Y -0.381,Z -0.909,A -105.551,B -0.000,C -0.000,E1 0.000,E2 850.000,E3 0.000,E4 0.000,E5 0.000,E6 0.000}
LIN {X 565.170,Y -1.021,Z -0.909,A -111.741,B -0.000,C 0.000,E1 0.000,E2 850.000,E3 0.000,E4 0.000,E5 0.000,E6 0.000}
LIN {X 566.697,Y -1.831,Z -0.909,A -117.932,B -0.000,C -0.000,E1 0.000,E2 850.000,E3 0.000,E4 0.000,E5 0.000,E6 0.000}
LIN {X 568.916,Y -3.058,Z -0.909,A -118.952,B -0.000,C -0.000,E1 0.000,E2 850.000,E3 0.000,E4 0.000,E5 0.000,E6 0.000}
LIN {X 571.221,Y -4.115,Z -0.909,A -114.626,B -0.000,C -0.000,E1 0.000,E2 850.000,E3 0.000,E4 0.000,E5 0.000,E6 0.000}
LIN {X 573.600,Y -4.995,Z -0.909,A -110.301,B -0.000,C 0.000,E1 0.000,E2 850.000,E3 0.000,E4 0.000,E5 0.000,E6 0.000}
LIN {X 576.038,Y -5.693,Z -0.909,A -105.975,B -0.000,C -0.000,E1 0.000,E2 850.000,E3 0.000,E4 0.000,E5 0.000,E6 0.000}
LIN {X 578.522,Y -6.205,Z -0.909,A -101.649,B -0.000,C 0.000,E1 0.000,E2 850.000,E3 0.000,E4 0.000,E5 0.000,E6 0.000}
LIN {X 579.486,Y -6.267,Z -0.909,A -93.703,B -0.000,C 0.000,E1 0.000,E2 850.000,E3 0.000,E4 0.000,E5 0.000,E6 0.000}
LIN {X 580.442,Y -6.136,Z -0.909,A -82.156,B -0.000,C 0.000,E1 0.000,E2 850.000,E3 0.000,E4 0.000,E5 0.000,E6 0.000}
LIN {X 581.353,Y -5.815,Z -0.909,A -70.608,B -0.000,C -0.000,E1 0.000,E2 850.000,E3 0.000,E4 0.000,E5 0.000,E6 0.000}
LIN {X 582.182,Y -5.318,Z -0.909,A -59.061,B -0.000,C 0.000,E1 0.000,E2 850.000,E3 0.000,E4 0.000,E5 0.000,E6 0.000}
LIN {X 582.894,Y -4.666,Z -0.909,A -47.513,B -0.000,C -0.000,E1 0.000,E2 850.000,E3 0.000,E4 0.000,E5 0.000,E6 0.000}
LIN {X 583.461,Y -3.884,Z -0.909,A -35.966,B -0.000,C -0.000,E1 0.000,E2 850.000,E3 0.000,E4 0.000,E5 0.000,E6 0.000}
LIN {X 583.860,Y -3.005,Z -0.909,A -24.418,B -0.000,C -0.000,E1 0.000,E2 850.000,E3 0.000,E4 0.000,E5 0.000,E6 0.000}
LIN {X 584.075,Y -2.064,Z -0.909,A -12.871,B -0.000,C 0.000,E1 0.000,E2 850.000,E3 0.000,E4 0.000,E5 0.000,E6 0.000}
LIN {X 584.098,Y -1.098,Z -0.909,A -1.323,B -0.000,C 0.000,E1 0.000,E2 850.000,E3 0.000,E4 0.000,E5 0.000,E6 0.000}
LIN {X 584.081,Y -0.821,Z -0.909,A 3.410,B -0.000,C -0.000,E1 0.000,E2 850.000,E3 0.000,E4 0.000,E5 0.000,E6 0.000}
LIN {X 584.068,Y -0.495,Z -0.909,A 2.362,B -0.000,C -0.000,E1 0.000,E2 850.000,E3 0.000,E4 0.000,E5 0.000,E6 0.000}
LIN {X 584.059,Y -0.126,Z -0.909,A 1.283,B -0.000,C -0.000,E1 0.000,E2 850.000,E3 0.000,E4 0.000,E5 0.000,E6 0.000}
LIN {X 584.059,Y 0.148,Z -0.909,A 0.001,B -0.000,C -0.000,E1 0.000,E2 850.000,E3 0.000,E4 0.000,E5 0.000,E6 0.000}
LIN {X 584.060,Y 0.355,Z -0.909,A -0.092,B -0.000,C 0.000,E1 0.000,E2 850.000,E3 0.000,E4 0.000,E5 0.000,E6 0.000}
LIN {X 584.060,Y 0.557,Z -0.909,A 0.041,B -0.000,C -0.000,E1 0.000,E2 850.000,E3 0.000,E4 0.000,E5 0.000,E6 0.000}
LIN {X 584.060,Y 0.789,Z -0.909,A 0.010,B -0.000,C -0.000,E1 0.000,E2 850.000,E3 0.000,E4 0.000,E5 0.000,E6 0.000}
LIN {X 584.060,Y 1.163,Z -0.909,A -0.029,B -0.000,C 0.000,E1 0.000,E2 850.000,E3 0.000,E4 0.000,E5 0.000,E6 0.000}
LIN {X 584.060,Y 1.745,Z -0.909,A 0.020,B -0.000,C -0.000,E1 0.000,E2 850.000,E3 0.000,E4 0.000,E5 0.000,E6 0.000}
LIN {X 584.060,Y 1.938,Z -0.909,A -0.015,B -0.000,C 0.000,E1 0.000,E2 850.000,E3 0.000,E4 0.000,E5 0.000,E6 0.000}
LIN {X 584.059,Y 2.400,Z -0.909,A 0.026,B -0.000,C -0.000,E1 0.000,E2 850.000,E3 0.000,E4 0.000,E5 0.000,E6 0.000}
LIN {X 584.059,Y 2.617,Z -0.909,A -0.013,B -0.000,C 0.000,E1 0.000,E2 850.000,E3 0.000,E4 0.000,E5 0.000,E6 0.000}
LIN {X 583.962,Y 3.865,Z -0.909,A 4.485,B -0.000,C -0.000,E1 0.000,E2 850.000,E3 0.000,E4 0.000,E5 0.000,E6 0.000}
LIN {X 583.670,Y 5.082,Z -0.909,A 13.458,B -0.000,C -0.000,E1 0.000,E2 850.000,E3 0.000,E4 0.000,E5 0.000,E6 0.000}
LIN {X 583.193,Y 6.239,Z -0.909,A 22.431,B -0.000,C -0.000,E1 0.000,E2 850.000,E3 0.000,E4 0.000,E5 0.000,E6 0.000}
LIN {X 582.541,Y 7.307,Z -0.909,A 31.403,B -0.000,C -0.000,E1 0.000,E2 850.000,E3 0.000,E4 0.000,E5 0.000,E6 0.000}
LIN {X 581.730,Y 8.261,Z -0.909,A 40.376,B -0.000,C -0.000,E1 0.000,E2 850.000,E3 0.000,E4 0.000,E5 0.000,E6 0.000}
LIN {X 580.780,Y 9.076,Z -0.909,A 49.348,B -0.000,C 0.000,E1 0.000,E2 850.000,E3 0.000,E4 0.000,E5 0.000,E6 0.000}
LIN {X 579.715,Y 9.733,Z -0.909,A 58.321,B -0.000,C 0.000,E1 0.000,E2 850.000,E3 0.000,E4 0.000,E5 0.000,E6 0.000}
LIN {X 578.561,Y 10.217,Z -0.909,A 67.294,B -0.000,C 0.000,E1 0.000,E2 850.000,E3 0.000,E4 0.000,E5 0.000,E6 0.000}
LIN {X 576.716,Y 10.941,Z -0.909,A 68.567,B -0.000,C 0.000,E1 0.000,E2 850.000,E3 0.000,E4 0.000,E5 0.000,E6 0.000}
LIN {X 574.965,Y 11.868,Z -0.909,A 62.112,B -0.000,C -0.000,E1 0.000,E2 850.000,E3 0.000,E4 0.000,E5 0.000,E6 0.000}
LIN {X 574.071,Y 12.445,Z -0.909,A 57.153,B -0.000,C 0.000,E1 0.000,E2 850.000,E3 0.000,E4 0.000,E5 0.000,E6 0.000}
LIN {X 573.213,Y 13.075,Z -0.909,A 53.688,B -0.000,C -0.000,E1 0.000,E2 850.000,E3 0.000,E4 0.000,E5 0.000,E6 0.000}
LIN {X 571.766,Y 14.081,Z -0.909,A 55.206,B -0.000,C 0.000,E1 0.000,E2 850.000,E3 0.000,E4 0.000,E5 0.000,E6 0.000}
LIN {X 570.217,Y 14.921,Z -0.909,A 61.519,B -0.000,C -0.000,E1 0.000,E2 850.000,E3 0.000,E4 0.000,E5 0.000,E6 0.000}
LIN {X 568.585,Y 15.586,Z -0.909,A 67.833,B -0.000,C 0.000,E1 0.000,E2 850.000,E3 0.000,E4 0.000,E5 0.000,E6 0.000}
LIN {X 566.890,Y 16.067,Z -0.909,A 74.146,B -0.000,C -0.000,E1 0.000,E2 850.000,E3 0.000,E4 0.000,E5 0.000,E6 0.000}
LIN {X 565.152,Y 16.359,Z -0.909,A 80.460,B -0.000,C 0.000,E1 0.000,E2 850.000,E3 0.000,E4 0.000,E5 0.000,E6 0.000}
LIN {X 563.393,Y 16.458,Z -0.909,A 86.773,B -0.000,C 0.000,E1 0.000,E2 850.000,E3 0.000,E4 0.000,E5 0.000,E6 0.000}
LIN {X 520.590,Y 16.460,Z -0.909,A 89.998,B -0.000,C 0.000,E1 0.000,E2 850.000,E3 0.000,E4 0.000,E5 0.000,E6 0.000}
LIN {X 518.832,Y 16.361,Z -0.909,A 93.220,B -0.000,C -0.000,E1 0.000,E2 850.000,E3 0.000,E4 0.000,E5 0.000,E6 0.000}
LIN {X 517.096,Y 16.069,Z -0.909,A 99.528,B -0.000,C -0.000,E1 0.000,E2 850.000,E3 0.000,E4 0.000,E5 0.000,E6 0.000}
LIN {X 515.402,Y 15.589,Z -0.909,A 105.835,B -0.000,C 0.000,E1 0.000,E2 850.000,E3 0.000,E4 0.000,E5 0.000,E6 0.000}
LIN {X 513.772,Y 14.925,Z -0.909,A 112.143,B -0.000,C -0.000,E1 0.000,E2 850.000,E3 0.000,E4 0.000,E5 0.000,E6 0.000}
LIN {X 512.224,Y 14.087,Z -0.909,A 118.450,B -0.000,C 0.000,E1 0.000,E2 850.000,E3 0.000,E4 0.000,E5 0.000,E6 0.000}
LIN {X 510.777,Y 13.083,Z -0.909,A 124.758,B -0.000,C -0.000,E1 0.000,E2 850.000,E3 0.000,E4 0.000,E5 0.000,E6 0.000}
LIN {X 509.920,Y 12.454,Z -0.909,A 126.275,B -0.000,C 0.000,E1 0.000,E2 850.000,E3 0.000,E4 0.000,E5 0.000,E6 0.000}
LIN {X 509.027,Y 11.878,Z -0.909,A 122.813,B -0.000,C -0.000,E1 0.000,E2 850.000,E3 0.000,E4 0.000,E5 0.000,E6 0.000}
LIN {X 507.477,Y 11.046,Z -0.909,A 118.219,B -0.000,C 0.000,E1 0.000,E2 850.000,E3 0.000,E4 0.000,E5 0.000,E6 0.000}
LIN {X 505.853,Y 10.374,Z -0.909,A 112.492,B -0.000,C -0.000,E1 0.000,E2 850.000,E3 0.000,E4 0.000,E5 0.000,E6 0.000}
LIN {X 504.169,Y 9.866,Z -0.909,A 106.765,B -0.000,C 0.000,E1 0.000,E2 850.000,E3 0.000,E4 0.000,E5 0.000,E6 0.000}
LIN {X 502.443,Y 9.530,Z -0.909,A 101.038,B -0.000,C -0.000,E1 0.000,E2 850.000,E3 0.000,E4 0.000,E5 0.000,E6 0.000}
LIN {X 501.372,Y 9.449,Z -0.909,A 94.321,B -0.000,C -0.000,E1 0.000,E2 850.000,E3 0.000,E4 0.000,E5 0.000,E6 0.000}
LIN {X 500.301,Y 9.512,Z -0.909,A 86.627,B -0.000,C 0.000,E1 0.000,E2 850.000,E3 0.000,E4 0.000,E5 0.000,E6 0.000}
LIN {X 499.247,Y 9.718,Z -0.909,A 78.932,B -0.000,C 0.000,E1 0.000,E2 850.000,E3 0.000,E4 0.000,E5 0.000,E6 0.000}
LIN {X 498.231,Y 10.063,Z -0.909,A 71.238,B -0.000,C 0.000,E1 0.000,E2 850.000,E3 0.000,E4 0.000,E5 0.000,E6 0.000}
LIN {X 496.987,Y 10.582,Z -0.909,A 67.382,B -0.000,C 0.000,E1 0.000,E2 850.000,E3 0.000,E4 0.000,E5 0.000,E6 0.000}
LIN {X 495.819,Y 11.190,Z -0.909,A 62.463,B -0.000,C -0.000,E1 0.000,E2 850.000,E3 0.000,E4 0.000,E5 0.000,E6 0.000}
LIN {X 494.773,Y 11.990,Z -0.909,A 52.627,B -0.000,C -0.000,E1 0.000,E2 850.000,E3 0.000,E4 0.000,E5 0.000,E6 0.000}
LIN {X 493.878,Y 12.956,Z -0.909,A 42.791,B -0.000,C 0.000,E1 0.000,E2 850.000,E3 0.000,E4 0.000,E5 0.000,E6 0.000}
LIN {X 493.162,Y 14.061,Z -0.909,A 32.955,B -0.000,C -0.000,E1 0.000,E2 850.000,E3 0.000,E4 0.000,E5 0.000,E6 0.000}
LIN {X 492.645,Y 15.272,Z -0.909,A 23.118,B -0.000,C -0.000,E1 0.000,E2 850.000,E3 0.000,E4 0.000,E5 0.000,E6 0.000}
LIN {X 492.342,Y 16.554,Z -0.909,A 13.282,B -0.000,C -0.000,E1 0.000,E2 850.000,E3 0.000,E4 0.000,E5 0.000,E6 0.000}
LIN {X 492.263,Y 17.868,Z -0.909,A 3.446,B -0.000,C -0.000,E1 0.000,E2 850.000,E3 0.000,E4 0.000,E5 0.000,E6 0.000}
LIN {X 492.410,Y 19.177,Z -0.909,A -6.390,B -0.000,C -0.000,E1 0.000,E2 850.000,E3 0.000,E4 0.000,E5 0.000,E6 0.000}
LIN {X 492.778,Y 20.441,Z -0.909,A -16.227,B -0.000,C -0.000,E1 0.000,E2 850.000,E3 0.000,E4 0.000,E5 0.000,E6 0.000}
LIN {X 493.356,Y 21.624,Z -0.909,A -26.063,B -0.000,C -0.000,E1 0.000,E2 850.000,E3 0.000,E4 0.000,E5 0.000,E6 0.000}
LIN {X 494.128,Y 22.691,Z -0.909,A -35.899,B -0.000,C -0.000,E1 0.000,E2 850.000,E3 0.000,E4 0.000,E5 0.000,E6 0.000}
LIN {X 495.071,Y 23.610,Z -0.909,A -45.735,B -0.000,C 0.000,E1 0.000,E2 850.000,E3 0.000,E4 0.000,E5 0.000,E6 0.000}
LIN {X 496.158,Y 24.355,Z -0.909,A -55.572,B -0.000,C -0.000,E1 0.000,E2 850.000,E3 0.000,E4 0.000,E5 0.000,E6 0.000}
LIN {X 497.355,Y 24.903,Z -0.909,A -65.408,B -0.000,C 0.000,E1 0.000,E2 850.000,E3 0.000,E4 0.000,E5 0.000,E6 0.000}
LIN {X 498.628,Y 25.238,Z -0.909,A -75.244,B -0.000,C 0.000,E1 0.000,E2 850.000,E3 0.000,E4 0.000,E5 0.000,E6 0.000}
LIN {X 499.940,Y 25.351,Z -0.909,A -85.080,B -0.000,C 0.000,E1 0.000,E2 850.000,E3 0.000,E4 0.000,E5 0.000,E6 0.000}
LIN {X 500.461,Y 25.438,Z -0.909,A -80.497,B -0.000,C -0.000,E1 0.000,E2 850.000,E3 0.000,E4 0.000,E5 0.000,E6 0.000}
LIN {X 500.926,Y 25.690,Z -0.909,A -61.495,B -0.000,C 0.000,E1 0.000,E2 850.000,E3 0.000,E4 0.000,E5 0.000,E6 0.000}
LIN {X 501.256,Y 26.041,Z -0.909,A -43.328,B -0.000,C -0.000,E1 0.000,E2 850.000,E3 0.000,E4 0.000,E5 0.000,E6 0.000}
LIN {X 501.468,Y 26.474,Z -0.909,A -25.996,B -0.000,C -0.000,E1 0.000,E2 850.000,E3 0.000,E4 0.000,E5 0.000,E6 0.000}
LIN {X 501.540,Y 26.951,Z -0.909,A -8.665,B -0.000,C -0.000,E1 0.000,E2 850.000,E3 0.000,E4 0.000,E5 0.000,E6 0.000}
LIN {X 501.540,Y 36.451,Z -0.909,A 0.001,B -0.000,C -0.000,E1 0.000,E2 850.000,E3 0.000,E4 0.000,E5 0.000,E6 0.000}
LIN {X 501.540,Y 45.238,Z -0.909,A 0.002,B -0.000,C -0.000,E1 0.000,E2 850.000,E3 0.000,E4 0.000,E5 0.000,E6 0.000}
LIN {X 501.650,Y 46.063,Z -0.909,A -7.619,B -0.000,C -0.000,E1 0.000,E2 850.000,E3 0.000,E4 0.000,E5 0.000,E6 0.000}
LIN {X 501.970,Y 46.832,Z -0.909,A -22.571,B -0.000,C 0.000,E1 0.000,E2 850.000,E3 0.000,E4 0.000,E5 0.000,E6 0.000}
LIN {X 502.477,Y 47.493,Z -0.909,A -37.523,B -0.000,C -0.000,E1 0.000,E2 850.000,E3 0.000,E4 0.000,E5 0.000,E6 0.000}
LIN {X 503.137,Y 48.000,Z -0.909,A -52.475,B -0.000,C 0.000,E1 0.000,E2 850.000,E3 0.000,E4 0.000,E5 0.000,E6 0.000}
LIN {X 503.906,Y 48.320,Z -0.909,A -67.427,B -0.000,C -0.000,E1 0.000,E2 850.000,E3 0.000,E4 0.000,E5 0.000,E6 0.000}
LIN {X 504.732,Y 48.430,Z -0.909,A -82.379,B -0.000,C 0.000,E1 0.000,E2 850.000,E3 0.000,E4 0.000,E5 0.000,E6 0.000}
LIN {X 542.937,Y 48.430,Z -0.909,A -90.000,B -0.000,C -0.000,E1 0.000,E2 850.000,E3 0.000,E4 0.000,E5 0.000,E6 0.000}
LIN {X 543.721,Y 48.330,Z -0.909,A -97.243,B -0.000,C -0.000,E1 0.000,E2 850.000,E3 0.000,E4 0.000,E5 0.000,E6 0.000}
LIN {X 544.457,Y 48.041,Z -0.909,A -111.440,B -0.000,C 0.000,E1 0.000,E2 850.000,E3 0.000,E4 0.000,E5 0.000,E6 0.000}
LIN {X 545.100,Y 47.580,Z -0.909,A -125.637,B -0.000,C -0.000,E1 0.000,E2 850.000,E3 0.000,E4 0.000,E5 0.000,E6 0.000}
LIN {X 545.610,Y 46.976,Z -0.909,A -139.833,B -0.000,C -0.000,E1 0.000,E2 850.000,E3 0.000,E4 0.000,E5 0.000,E6 0.000}
LIN {X 545.956,Y 46.266,Z -0.909,A -154.019,B -0.000,C 0.000,E1 0.000,E2 850.000,E3 0.000,E4 0.000,E5 0.000,E6 0.000}
LIN {X 546.118,Y 45.493,Z -0.909,A -168.194,B -0.000,C -0.000,E1 0.000,E2 850.000,E3 0.000,E4 0.000,E5 0.000,E6 0.000}
LIN {X 546.085,Y 44.704,Z -0.909,A 177.632,B -0.000,C 0.000,E1 0.000,E2 850.000,E3 0.000,E4 0.000,E5 0.000,E6 0.000}
LIN {X 545.860,Y 43.947,Z -0.909,A 163.457,B -0.000,C -0.000,E1 0.000,E2 850.000,E3 0.000,E4 0.000,E5 0.000,E6 0.000}
LIN {X 545.457,Y 43.268,Z -0.909,A 149.282,B -0.000,C -0.000,E1 0.000,E2 850.000,E3 0.000,E4 0.000,E5 0.000,E6 0.000}
LIN {X 544.899,Y 42.709,Z -0.909,A 135.107,B -0.000,C -0.000,E1 0.000,E2 850.000,E3 0.000,E4 0.000,E5 0.000,E6 0.000}
LIN {X 544.222,Y 42.303,Z -0.909,A 120.932,B -0.000,C 0.000,E1 0.000,E2 850.000,E3 0.000,E4 0.000,E5 0.000,E6 0.000}
LIN {X 543.466,Y 42.075,Z -0.909,A 106.758,B -0.000,C 0.000,E1 0.000,E2 850.000,E3 0.000,E4 0.000,E5 0.000,E6 0.000}
LIN {X 510.268,Y 36.505,Z -0.909,A 99.525,B -0.000,C -0.000,E1 0.000,E2 850.000,E3 0.000,E4 0.000,E5 0.000,E6 0.000}
LIN {X 509.741,Y 36.318,Z -0.909,A 109.584,B -0.000,C -0.000,E1 0.000,E2 850.000,E3 0.000,E4 0.000,E5 0.000,E6 0.000}
LIN {X 509.311,Y 35.961,Z -0.909,A 129.703,B -0.000,C -0.000,E1 0.000,E2 850.000,E3 0.000,E4 0.000,E5 0.000,E6 0.000}
LIN {X 509.030,Y 35.478,Z -0.909,A 149.822,B -0.000,C -0.000,E1 0.000,E2 850.000,E3 0.000,E4 0.000,E5 0.000,E6 0.000}
LIN {X 508.933,Y 34.927,Z -0.909,A 169.941,B -0.000,C 0.000,E1 0.000,E2 850.000,E3 0.000,E4 0.000,E5 0.000,E6 0.000}
LIN {X 508.933,Y 34.060,Z -0.909,A 180.000,B -0.000,C 0.000,E1 0.000,E2 850.000,E3 0.000,E4 0.000,E5 0.000,E6 0.000}
LIN {X 509.011,Y 33.566,Z -0.909,A -171.000,B -0.000,C 0.000,E1 0.000,E2 850.000,E3 0.000,E4 0.000,E5 0.000,E6 0.000}
LIN {X 509.238,Y 33.120,Z -0.909,A -153.001,B -0.000,C 0.000,E1 0.000,E2 850.000,E3 0.000,E4 0.000,E5 0.000,E6 0.000}
LIN {X 509.592,Y 32.766,Z -0.909,A -135.001,B -0.000,C 0.000,E1 0.000,E2 850.000,E3 0.000,E4 0.000,E5 0.000,E6 0.000}
LIN {X 510.038,Y 32.538,Z -0.909,A -117.001,B -0.000,C -0.000,E1 0.000,E2 850.000,E3 0.000,E4 0.000,E5 0.000,E6 0.000}
LIN {X 510.533,Y 32.460,Z -0.909,A -99.002,B -0.000,C -0.000,E1 0.000,E2 850.000,E3 0.000,E4 0.000,E5 0.000,E6 0.000}
LIN {X 579.268,Y 32.458,Z -0.909,A -90.002,B -0.000,C 0.000,E1 0.000,E2 850.000,E3 0.000,E4 0.000,E5 0.000,E6 0.000}
LIN {X 580.092,Y 32.348,Z -0.909,A -97.613,B -0.000,C -0.000,E1 0.000,E2 850.000,E3 0.000,E4 0.000,E5 0.000,E6 0.000}
LIN {X 580.860,Y 32.029,Z -0.909,A -112.544,B -0.000,C 0.000,E1 0.000,E2 850.000,E3 0.000,E4 0.000,E5 0.000,E6 0.000}
LIN {X 581.520,Y 31.523,Z -0.909,A -127.476,B -0.000,C -0.000,E1 0.000,E2 850.000,E3 0.000,E4 0.000,E5 0.000,E6 0.000}
LIN {X 582.027,Y 30.864,Z -0.909,A -142.408,B -0.000,C 0.000,E1 0.000,E2 850.000,E3 0.000,E4 0.000,E5 0.000,E6 0.000}
LIN {X 582.348,Y 30.097,Z -0.909,A -157.339,B -0.000,C -0.000,E1 0.000,E2 850.000,E3 0.000,E4 0.000,E5 0.000,E6 0.000}
LIN {X 582.431,Y 29.685,Z -0.909,A -168.567,B -0.000,C -0.000,E1 0.000,E2 850.000,E3 0.000,E4 0.000,E5 0.000,E6 0.000}
LIN {X 582.460,Y 29.266,Z -0.909,A -176.092,B -0.000,C -0.000,E1 0.000,E2 850.000,E3 0.000,E4 0.000,E5 0.000,E6 0.000}
LIN {X 582.460,Y 26.935,Z -0.909,A 180.000,B -0.000,C 0.000,E1 0.000,E2 850.000,E3 0.000,E4 0.000,E5 0.000,E6 0.000}
LIN {X 582.532,Y 26.459,Z -0.909,A -171.341,B -0.000,C 0.000,E1 0.000,E2 850.000,E3 0.000,E4 0.000,E5 0.000,E6 0.000}
LIN {X 582.743,Y 26.026,Z -0.909,A -154.023,B -0.000,C 0.000,E1 0.000,E2 850.000,E3 0.000,E4 0.000,E5 0.000,E6 0.000}
LIN {X 583.074,Y 25.675,Z -0.909,A -136.704,B -0.000,C 0.000,E1 0.000,E2 850.000,E3 0.000,E4 0.000,E5 0.000,E6 0.000}
LIN {X 583.538,Y 25.423,Z -0.909,A -118.534,B -0.000,C -0.000,E1 0.000,E2 850.000,E3 0.000,E4 0.000,E5 0.000,E6 0.000}
LIN {X 584.060,Y 25.335,Z -0.909,A -99.511,B -0.000,C 0.000,E1 0.000,E2 850.000,E3 0.000,E4 0.000,E5 0.000,E6 0.000}
LIN {X 600.060,Y 25.335,Z -0.909,A -179.998,B -0.000,C -0.000,E1 0.000,E2 850.000,E3 0.000,E4 0.000,E5 0.000,E6 0.000}
LIN {X 600.060,Y 25.335,Z 2.091,A -179.998,B -0.000,C -0.000,E1 0.000,E2 850.000,E3 0.000,E4 0.000,E5 0.000,E6 0.000}
PTP {X 600.060,Y 25.335,Z 10.500,A -179.998,B -0.000,C -0.000,E1 0.000,E2 850.000,E3 0.000,E4 0.000,E5 0.000,E6 0.000}
PTP {X 582.460,Y 43.274,Z 10.500,A -179.998,B -0.000,C -0.000,E1 0.000,E2 850.000,E3 0.000,E4 0.000,E5 0.000,E6 0.000}
PTP {X 582.460,Y 43.274,Z 2.091,A -179.998,B -0.000,C -0.000,E1 0.000,E2 850.000,E3 0.000,E4 0.000,E5 0.000,E6 0.000}
LIN {X 582.460,Y 43.274,Z -0.909,A -179.998,B -0.000,C -0.000,E1 0.000,E2 850.000,E3 0.000,E4 0.000,E5 0.000,E6 0.000}
LIN {X 598.460,Y 43.275,Z -0.909,A -179.998,B -0.000,C -0.000,E1 0.000,E2 850.000,E3 0.000,E4 0.000,E5 0.000,E6 0.000}
LIN {X 598.460,Y 41.311,Z -0.909,A -179.998,B -0.000,C -0.000,E1 0.000,E2 850.000,E3 0.000,E4 0.000,E5 0.000,E6 0.000}
LIN {X 598.354,Y 40.500,Z -0.909,A 172.516,B -0.000,C -0.000,E1 0.000,E2 850.000,E3 0.000,E4 0.000,E5 0.000,E6 0.000}
LIN {X 598.045,Y 39.743,Z -0.909,A 157.837,B -0.000,C 0.000,E1 0.000,E2 850.000,E3 0.000,E4 0.000,E5 0.000,E6 0.000}
LIN {X 597.555,Y 39.089,Z -0.909,A 143.158,B -0.000,C -0.000,E1 0.000,E2 850.000,E3 0.000,E4 0.000,E5 0.000,E6 0.000}
LIN {X 596.915,Y 38.580,Z -0.909,A 128.478,B -0.000,C 0.000,E1 0.000,E2 850.000,E3 0.000,E4 0.000,E5 0.000,E6 0.000}
LIN {X 596.167,Y 38.250,Z -0.909,A 113.799,B -0.000,C -0.000,E1 0.000,E2 850.000,E3 0.000,E4 0.000,E5 0.000,E6 0.000}
LIN {X 595.360,Y 38.120,Z -0.909,A 99.119,B -0.000,C 0.000,E1 0.000,E2 850.000,E3 0.000,E4 0.000,E5 0.000,E6 0.000}
LIN {X 594.546,Y 38.200,Z -0.909,A 84.440,B -0.000,C -0.000,E1 0.000,E2 850.000,E3 0.000,E4 0.000,E5 0.000,E6 0.000}
LIN {X 593.779,Y 38.482,Z -0.909,A 69.760,B -0.000,C 0.000,E1 0.000,E2 850.000,E3 0.000,E4 0.000,E5 0.000,E6 0.000}
LIN {X 593.108,Y 38.950,Z -0.909,A 55.081,B -0.000,C -0.000,E1 0.000,E2 850.000,E3 0.000,E4 0.000,E5 0.000,E6 0.000}
LIN {X 592.578,Y 39.573,Z -0.909,A 40.401,B -0.000,C -0.000,E1 0.000,E2 850.000,E3 0.000,E4 0.000,E5 0.000,E6 0.000}
LIN {X 592.314,Y 39.982,Z -0.909,A 32.916,B -0.000,C -0.000,E1 0.000,E2 850.000,E3 0.000,E4 0.000,E5 0.000,E6 0.000}
LIN {X 592.271,Y 40.045,Z -0.909,A 34.284,B -0.000,C -0.000,E1 0.000,E2 850.000,E3 0.000,E4 0.000,E5 0.000,E6 0.000}
LIN {X 592.225,Y 40.106,Z -0.909,A 37.020,B -0.000,C 0.000,E1 0.000,E2 850.000,E3 0.000,E4 0.000,E5 0.000,E6 0.000}
LIN {X 592.055,Y 40.344,Z -0.909,A 35.514,B -0.000,C 0.000,E1 0.000,E2 850.000,E3 0.000,E4 0.000,E5 0.000,E6 0.000}
LIN {X 591.907,Y 40.597,Z -0.909,A 30.269,B -0.000,C 0.000,E1 0.000,E2 850.000,E3 0.000,E4 0.000,E5 0.000,E6 0.000}
LIN {X 591.862,Y 40.678,Z -0.909,A 29.051,B -0.000,C 0.000,E1 0.000,E2 850.000,E3 0.000,E4 0.000,E5 0.000,E6 0.000}
LIN {X 591.813,Y 40.756,Z -0.909,A 32.363,B -0.000,C -0.000,E1 0.000,E2 850.000,E3 0.000,E4 0.000,E5 0.000,E6 0.000}
LIN {X 590.965,Y 42.012,Z -0.909,A 34.018,B -0.000,C -0.000,E1 0.000,E2 850.000,E3 0.000,E4 0.000,E5 0.000,E6 0.000}
LIN {X 590.855,Y 42.157,Z -0.909,A 37.289,B -0.000,C 0.000,E1 0.000,E2 850.000,E3 0.000,E4 0.000,E5 0.000,E6 0.000}
LIN {X 590.728,Y 42.288,Z -0.909,A 43.829,B -0.000,C 0.000,E1 0.000,E2 850.000,E3 0.000,E4 0.000,E5 0.000,E6 0.000}
LIN {X 590.505,Y 42.496,Z -0.909,A 47.099,B -0.000,C -0.000,E1 0.000,E2 850.000,E3 0.000,E4 0.000,E5 0.000,E6 0.000}
LIN {X 590.006,Y 43.091,Z -0.909,A 39.982,B -0.000,C -0.000,E1 0.000,E2 850.000,E3 0.000,E4 0.000,E5 0.000,E6 0.000}
LIN {X 589.665,Y 43.789,Z -0.909,A 26.038,B -0.000,C 0.000,E1 0.000,E2 850.000,E3 0.000,E4 0.000,E5 0.000,E6 0.000}
LIN {X 589.639,Y 43.860,Z -0.909,A 20.167,B -0.000,C -0.000,E1 0.000,E2 850.000,E3 0.000,E4 0.000,E5 0.000,E6 0.000}
LIN {X 589.609,Y 43.930,Z -0.909,A 22.871,B -0.000,C -0.000,E1 0.000,E2 850.000,E3 0.000,E4 0.000,E5 0.000,E6 0.000}
LIN {X 589.379,Y 44.688,Z -0.909,A 16.858,B -0.000,C 0.000,E1 0.000,E2 850.000,E3 0.000,E4 0.000,E5 0.000,E6 0.000}
LIN {X 589.343,Y 45.480,Z -0.909,A 2.630,B -0.000,C -0.000,E1 0.000,E2 850.000,E3 0.000,E4 0.000,E5 0.000,E6 0.000}
LIN {X 589.502,Y 46.257,Z -0.909,A -11.599,B -0.000,C 0.000,E1 0.000,E2 850.000,E3 0.000,E4 0.000,E5 0.000,E6 0.000}
LIN {X 589.848,Y 46.970,Z -0.909,A -25.827,B -0.000,C -0.000,E1 0.000,E2 850.000,E3 0.000,E4 0.000,E5 0.000,E6 0.000}
LIN {X 590.358,Y 47.577,Z -0.909,A -40.055,B -0.000,C 0.000,E1 0.000,E2 850.000,E3 0.000,E4 0.000,E5 0.000,E6 0.000}
LIN {X 591.001,Y 48.040,Z -0.909,A -54.284,B -0.000,C 0.000,E1 0.000,E2 850.000,E3 0.000,E4 0.000,E5 0.000,E6 0.000}
LIN {X 591.739,Y 48.330,Z -0.909,A -68.512,B -0.000,C -0.000,E1 0.000,E2 850.000,E3 0.000,E4 0.000,E5 0.000,E6 0.000}
LIN {X 592.525,Y 48.430,Z -0.909,A -82.741,B -0.000,C 0.000,E1 0.000,E2 850.000,E3 0.000,E4 0.000,E5 0.000,E6 0.000}
LIN {X 595.268,Y 48.430,Z -0.909,A -90.000,B -0.000,C -0.000,E1 0.000,E2 850.000,E3 0.000,E4 0.000,E5 0.000,E6 0.000}
LIN {X 596.094,Y 48.320,Z -0.909,A -97.621,B -0.000,C -0.000,E1 0.000,E2 850.000,E3 0.000,E4 0.000,E5 0.000,E6 0.000}
LIN {X 596.863,Y 48.000,Z -0.909,A -112.572,B -0.000,C 0.000,E1 0.000,E2 850.000,E3 0.000,E4 0.000,E5 0.000,E6 0.000}
LIN {X 597.523,Y 47.493,Z -0.909,A -127.524,B -0.000,C -0.000,E1 0.000,E2 850.000,E3 0.000,E4 0.000,E5 0.000,E6 0.000}
LIN {X 598.030,Y 46.832,Z -0.909,A -142.475,B -0.000,C 0.000,E1 0.000,E2 850.000,E3 0.000,E4 0.000,E5 0.000,E6 0.000}
LIN {X 598.350,Y 46.064,Z -0.909,A -157.426,B -0.000,C -0.000,E1 0.000,E2 850.000,E3 0.000,E4 0.000,E5 0.000,E6 0.000}
LIN {X 598.460,Y 45.238,Z -0.909,A -172.378,B -0.000,C 0.000,E1 0.000,E2 850.000,E3 0.000,E4 0.000,E5 0.000,E6 0.000}
LIN {X 598.460,Y 43.275,Z -0.909,A -179.998,B -0.000,C -0.000,E1 0.000,E2 850.000,E3 0.000,E4 0.000,E5 0.000,E6 0.000}
LIN {X 582.460,Y 43.274,Z -0.909,A 0.001,B -0.000,C -0.000,E1 0.000,E2 850.000,E3 0.000,E4 0.000,E5 0.000,E6 0.000}
LIN {X 582.460,Y 43.274,Z 2.091,A 0.001,B -0.000,C -0.000,E1 0.000,E2 850.000,E3 0.000,E4 0.000,E5 0.000,E6 0.000}
PTP {X 582.460,Y 43.274,Z 10.500,A 0.001,B -0.000,C -0.000,E1 0.000,E2 850.000,E3 0.000,E4 0.000,E5 0.000,E6 0.000}
PTP {X 515.941,Y 12.706,Z 10.500,A 0.001,B -0.000,C -0.000,E1 0.000,E2 850.000,E3 0.000,E4 0.000,E5 0.000,E6 0.000}
PTP {X 515.941,Y 12.706,Z 2.091,A 0.001,B -0.000,C -0.000,E1 0.000,E2 850.000,E3 0.000,E4 0.000,E5 0.000,E6 0.000}
LIN {X 515.941,Y 12.706,Z -0.909,A 0.001,B -0.000,C -0.000,E1 0.000,E2 850.000,E3 0.000,E4 0.000,E5 0.000,E6 0.000}
LIN {X 499.941,Y 10.951,Z -0.909,A 0.001,B -0.000,C -0.000,E1 0.000,E2 850.000,E3 0.000,E4 0.000,E5 0.000,E6 0.000}
LIN {X 499.940,Y 26.951,Z -0.909,A 0.001,B -0.000,C -0.000,E1 0.000,E2 850.000,E3 0.000,E4 0.000,E5 0.000,E6 0.000}
LIN {X 499.940,Y 36.451,Z -0.909,A 0.001,B -0.000,C -0.000,E1 0.000,E2 850.000,E3 0.000,E4 0.000,E5 0.000,E6 0.000}
LIN {X 499.940,Y 49.970,Z -0.909,A 0.002,B -0.000,C -0.000,E1 0.000,E2 850.000,E3 0.000,E4 0.000,E5 0.000,E6 0.000}
LIN {X 499.957,Y 50.012,Z -0.909,A -22.498,B -0.000,C 0.000,E1 0.000,E2 850.000,E3 0.000,E4 0.000,E5 0.000,E6 0.000}
LIN {X 500.000,Y 50.030,Z -0.909,A -67.500,B -0.000,C -0.000,E1 0.000,E2 850.000,E3 0.000,E4 0.000,E5 0.000,E6 0.000}
LIN {X 600.000,Y 50.030,Z -0.909,A -90.000,B -0.000,C -0.000,E1 0.000,E2 850.000,E3 0.000,E4 0.000,E5 0.000,E6 0.000}
LIN {X 600.043,Y 50.012,Z -0.909,A -112.499,B -0.000,C 0.000,E1 0.000,E2 850.000,E3 0.000,E4 0.000,E5 0.000,E6 0.000}
LIN {X 600.060,Y 49.970,Z -0.909,A -157.499,B -0.000,C -0.000,E1 0.000,E2 850.000,E3 0.000,E4 0.000,E5 0.000,E6 0.000}
LIN {X 600.060,Y 34.491,Z -0.909,A 180.000,B -0.000,C 0.000,E1 0.000,E2 850.000,E3 0.000,E4 0.000,E5 0.000,E6 0.000}
LIN {X 599.984,Y 33.910,Z -0.909,A 172.512,B -0.000,C -0.000,E1 0.000,E2 850.000,E3 0.000,E4 0.000,E5 0.000,E6 0.000}
LIN {X 599.961,Y 33.871,Z -0.909,A 150.241,B -0.000,C -0.000,E1 0.000,E2 850.000,E3 0.000,E4 0.000,E5 0.000,E6 0.000}
LIN {X 599.917,Y 33.858,Z -0.909,A 105.699,B -0.000,C 0.000,E1 0.000,E2 850.000,E3 0.000,E4 0.000,E5 0.000,E6 0.000}
LIN {X 597.471,Y 34.140,Z -0.909,A 83.427,B -0.000,C -0.000,E1 0.000,E2 850.000,E3 0.000,E4 0.000,E5 0.000,E6 0.000}
LIN {X 595.874,Y 34.498,Z -0.909,A 77.355,B -0.000,C 0.000,E1 0.000,E2 850.000,E3 0.000,E4 0.000,E5 0.000,E6 0.000}
LIN {X 594.318,Y 35.005,Z -0.909,A 71.955,B -0.000,C -0.000,E1 0.000,E2 850.000,E3 0.000,E4 0.000,E5 0.000,E6 0.000}
LIN {X 592.816,Y 35.657,Z -0.909,A 66.556,B -0.000,C 0.000,E1 0.000,E2 850.000,E3 0.000,E4 0.000,E5 0.000,E6 0.000}
LIN {X 591.382,Y 36.446,Z -0.909,A 61.156,B -0.000,C -0.000,E1 0.000,E2 850.000,E3 0.000,E4 0.000,E5 0.000,E6 0.000}
LIN {X 590.029,Y 37.367,Z -0.909,A 55.756,B -0.000,C 0.000,E1 0.000,E2 850.000,E3 0.000,E4 0.000,E5 0.000,E6 0.000}
LIN {X 590.005,Y 37.415,Z -0.909,A 26.898,B -0.000,C 0.000,E1 0.000,E2 850.000,E3 0.000,E4 0.000,E5 0.000,E6 0.000}
LIN {X 590.028,Y 37.462,Z -0.909,A -25.420,B -0.000,C -0.000,E1 0.000,E2 850.000,E3 0.000,E4 0.000,E5 0.000,E6 0.000}
LIN {X 591.357,Y 38.516,Z -0.909,A -51.579,B -0.000,C 0.000,E1 0.000,E2 850.000,E3 0.000,E4 0.000,E5 0.000,E6 0.000}
LIN {X 590.971,Y 39.112,Z -0.909,A 32.916,B -0.000,C -0.000,E1 0.000,E2 850.000,E3 0.000,E4 0.000,E5 0.000,E6 0.000}
LIN {X 590.599,Y 39.153,Z -0.909,A 83.793,B -0.000,C -0.000,E1 0.000,E2 850.000,E3 0.000,E4 0.000,E5 0.000,E6 0.000}
LIN {X 590.563,Y 39.170,Z -0.909,A 64.141,B -0.000,C -0.000,E1 0.000,E2 850.000,E3 0.000,E4 0.000,E5 0.000,E6 0.000}
LIN {X 590.546,Y 39.207,Z -0.909,A 24.836,B -0.000,C 0.000,E1 0.000,E2 850.000,E3 0.000,E4 0.000,E5 0.000,E6 0.000}
LIN {X 590.487,Y 39.861,Z -0.909,A 5.183,B -0.000,C 0.000,E1 0.000,E2 850.000,E3 0.000,E4 0.000,E5 0.000,E6 0.000}
LIN {X 589.639,Y 41.116,Z -0.909,A 34.018,B -0.000,C -0.000,E1 0.000,E2 850.000,E3 0.000,E4 0.000,E5 0.000,E6 0.000}
LIN {X 589.172,Y 41.551,Z -0.909,A 47.099,B -0.000,C -0.000,E1 0.000,E2 850.000,E3 0.000,E4 0.000,E5 0.000,E6 0.000}
LIN {X 587.874,Y 41.533,Z -0.909,A 90.777,B -0.000,C -0.000,E1 0.000,E2 850.000,E3 0.000,E4 0.000,E5 0.000,E6 0.000}
LIN {X 587.874,Y 41.322,Z -0.909,A 179.941,B -0.000,C 0.000,E1 0.000,E2 850.000,E3 0.000,E4 0.000,E5 0.000,E6 0.000}
LIN {X 587.829,Y 41.265,Z -0.909,A 141.868,B -0.000,C -0.000,E1 0.000,E2 850.000,E3 0.000,E4 0.000,E5 0.000,E6 0.000}
LIN {X 587.763,Y 41.292,Z -0.909,A 68.282,B -0.000,C 0.000,E1 0.000,E2 850.000,E3 0.000,E4 0.000,E5 0.000,E6 0.000}
LIN {X 587.364,Y 41.942,Z -0.909,A 31.489,B -0.000,C -0.000,E1 0.000,E2 850.000,E3 0.000,E4 0.000,E5 0.000,E6 0.000}
LIN {X 587.356,Y 41.980,Z -0.909,A 12.865,B -0.000,C -0.000,E1 0.000,E2 850.000,E3 0.000,E4 0.000,E5 0.000,E6 0.000}
LIN {X 587.372,Y 42.015,Z -0.909,A -24.384,B -0.000,C -0.000,E1 0.000,E2 850.000,E3 0.000,E4 0.000,E5 0.000,E6 0.000}
LIN {X 587.452,Y 42.101,Z -0.909,A -43.008,B -0.000,C -0.000,E1 0.000,E2 850.000,E3 0.000,E4 0.000,E5 0.000,E6 0.000}
LIN {X 587.472,Y 42.115,Z -0.909,A -54.757,B -0.000,C 0.000,E1 0.000,E2 850.000,E3 0.000,E4 0.000,E5 0.000,E6 0.000}
LIN {X 587.496,Y 42.120,Z -0.909,A -78.256,B -0.000,C -0.000,E1 0.000,E2 850.000,E3 0.000,E4 0.000,E5 0.000,E6 0.000}
LIN {X 587.754,Y 42.120,Z -0.909,A -90.005,B -0.000,C 0.000,E1 0.000,E2 850.000,E3 0.000,E4 0.000,E5 0.000,E6 0.000}
LIN {X 587.754,Y 42.530,Z -0.909,A 0.001,B -0.000,C -0.000,E1 0.000,E2 850.000,E3 0.000,E4 0.000,E5 0.000,E6 0.000}
LIN {X 587.771,Y 42.572,Z -0.909,A -22.282,B -0.000,C 0.000,E1 0.000,E2 850.000,E3 0.000,E4 0.000,E5 0.000,E6 0.000}
LIN {X 587.813,Y 42.590,Z -0.909,A -66.842,B -0.000,C -0.000,E1 0.000,E2 850.000,E3 0.000,E4 0.000,E5 0.000,E6 0.000}
LIN {X 588.230,Y 42.596,Z -0.909,A -89.121,B -0.000,C -0.000,E1 0.000,E2 850.000,E3 0.000,E4 0.000,E5 0.000,E6 0.000}
LIN {X 588.150,Y 43.273,Z -0.909,A 6.741,B -0.000,C 0.000,E1 0.000,E2 850.000,E3 0.000,E4 0.000,E5 0.000,E6 0.000}
LIN {X 587.767,Y 43.297,Z -0.909,A 86.493,B -0.000,C 0.000,E1 0.000,E2 850.000,E3 0.000,E4 0.000,E5 0.000,E6 0.000}
LIN {X 587.579,Y 43.213,Z -0.909,A 114.052,B -0.000,C -0.000,E1 0.000,E2 850.000,E3 0.000,E4 0.000,E5 0.000,E6 0.000}
LIN {X 587.555,Y 43.208,Z -0.909,A 102.023,B -0.000,C -0.000,E1 0.000,E2 850.000,E3 0.000,E4 0.000,E5 0.000,E6 0.000}
LIN {X 587.154,Y 43.208,Z -0.909,A 89.996,B -0.000,C 0.000,E1 0.000,E2 850.000,E3 0.000,E4 0.000,E5 0.000,E6 0.000}
LIN {X 587.126,Y 43.215,Z -0.909,A 76.189,B -0.000,C 0.000,E1 0.000,E2 850.000,E3 0.000,E4 0.000,E5 0.000,E6 0.000}
LIN {X 587.104,Y 43.234,Z -0.909,A 48.575,B -0.000,C 0.000,E1 0.000,E2 850.000,E3 0.000,E4 0.000,E5 0.000,E6 0.000}
LIN {X 586.647,Y 43.208,Z -0.909,A 93.216,B -0.000,C -0.000,E1 0.000,E2 850.000,E3 0.000,E4 0.000,E5 0.000,E6 0.000}
LIN {X 586.588,Y 43.246,Z -0.909,A 57.258,B -0.000,C 0.000,E1 0.000,E2 850.000,E3 0.000,E4 0.000,E5 0.000,E6 0.000}
LIN {X 586.606,Y 43.314,Z -0.909,A -14.660,B -0.000,C -0.000,E1 0.000,E2 850.000,E3 0.000,E4 0.000,E5 0.000,E6 0.000}
LIN {X 586.690,Y 43.383,Z -0.909,A -50.618,B -0.000,C -0.000,E1 0.000,E2 850.000,E3 0.000,E4 0.000,E5 0.000,E6 0.000}
LIN {X 586.717,Y 44.675,Z -0.909,A -1.198,B -0.000,C 0.000,E1 0.000,E2 850.000,E3 0.000,E4 0.000,E5 0.000,E6 0.000}
LIN {X 586.534,Y 44.675,Z -0.909,A 90.000,B -0.000,C 0.000,E1 0.000,E2 850.000,E3 0.000,E4 0.000,E5 0.000,E6 0.000}
LIN {X 586.494,Y 43.354,Z -0.909,A 178.239,B -0.000,C 0.000,E1 0.000,E2 850.000,E3 0.000,E4 0.000,E5 0.000,E6 0.000}
LIN {X 586.501,Y 42.847,Z -0.909,A -179.166,B -0.000,C -0.000,E1 0.000,E2 850.000,E3 0.000,E4 0.000,E5 0.000,E6 0.000}
LIN {X 586.902,Y 41.668,Z -0.909,A -161.223,B -0.000,C -0.000,E1 0.000,E2 850.000,E3 0.000,E4 0.000,E5 0.000,E6 0.000}
LIN {X 586.898,Y 41.622,Z -0.909,A 175.967,B -0.000,C 0.000,E1 0.000,E2 850.000,E3 0.000,E4 0.000,E5 0.000,E6 0.000}
LIN {X 586.863,Y 41.592,Z -0.909,A 130.345,B -0.000,C -0.000,E1 0.000,E2 850.000,E3 0.000,E4 0.000,E5 0.000,E6 0.000}
LIN {X 586.434,Y 41.456,Z -0.909,A 107.534,B -0.000,C 0.000,E1 0.000,E2 850.000,E3 0.000,E4 0.000,E5 0.000,E6 0.000}
LIN {X 586.394,Y 41.457,Z -0.909,A 88.317,B -0.000,C 0.000,E1 0.000,E2 850.000,E3 0.000,E4 0.000,E5 0.000,E6 0.000}
LIN {X 586.364,Y 41.483,Z -0.909,A 49.880,B -0.000,C 0.000,E1 0.000,E2 850.000,E3 0.000,E4 0.000,E5 0.000,E6 0.000}
LIN {X 585.628,Y 42.856,Z -0.909,A 28.175,B -0.000,C 0.000,E1 0.000,E2 850.000,E3 0.000,E4 0.000,E5 0.000,E6 0.000}
LIN {X 585.015,Y 44.287,Z -0.909,A 23.201,B -0.000,C -0.000,E1 0.000,E2 850.000,E3 0.000,E4 0.000,E5 0.000,E6 0.000}
LIN {X 584.528,Y 45.767,Z -0.909,A 18.226,B -0.000,C 0.000,E1 0.000,E2 850.000,E3 0.000,E4 0.000,E5 0.000,E6 0.000}
LIN {X 584.171,Y 47.283,Z -0.909,A 13.252,B -0.000,C -0.000,E1 0.000,E2 850.000,E3 0.000,E4 0.000,E5 0.000,E6 0.000}
LIN {X 510.533,Y 34.927,Z -0.909,A 99.525,B -0.000,C -0.000,E1 0.000,E2 850.000,E3 0.000,E4 0.000,E5 0.000,E6 0.000}
LIN {X 510.533,Y 34.060,Z -0.909,A 180.000,B -0.000,C 0.000,E1 0.000,E2 850.000,E3 0.000,E4 0.000,E5 0.000,E6 0.000}
LIN {X 579.268,Y 34.058,Z -0.909,A -90.002,B -0.000,C 0.000,E1 0.000,E2 850.000,E3 0.000,E4 0.000,E5 0.000,E6 0.000}
LIN {X 583.671,Y 34.058,Z -0.909,A -90.002,B -0.000,C 0.000,E1 0.000,E2 850.000,E3 0.000,E4 0.000,E5 0.000,E6 0.000}
LIN {X 584.013,Y 34.054,Z -0.909,A -90.561,B -0.000,C 0.000,E1 0.000,E2 850.000,E3 0.000,E4 0.000,E5 0.000,E6 0.000}
LIN {X 584.055,Y 34.036,Z -0.909,A -113.233,B -0.000,C 0.000,E1 0.000,E2 850.000,E3 0.000,E4 0.000,E5 0.000,E6 0.000}
LIN {X 584.072,Y 33.993,Z -0.909,A -158.578,B -0.000,C -0.000,E1 0.000,E2 850.000,E3 0.000,E4 0.000,E5 0.000,E6 0.000}
LIN {X 584.066,Y 33.689,Z -0.909,A 178.750,B -0.000,C 0.000,E1 0.000,E2 850.000,E3 0.000,E4 0.000,E5 0.000,E6 0.000}
LIN {X 584.060,Y 33.415,Z -0.909,A 178.750,B -0.000,C 0.000,E1 0.000,E2 850.000,E3 0.000,E4 0.000,E5 0.000,E6 0.000}
LIN {X 584.060,Y 26.935,Z -0.909,A 180.000,B -0.000,C 0.000,E1 0.000,E2 850.000,E3 0.000,E4 0.000,E5 0.000,E6 0.000}
LIN {X 584.060,Y 10.935,Z -0.909,A -79.665,B -0.000,C -0.000,E1 0.000,E2 850.000,E3 0.000,E4 0.000,E5 0.000,E6 0.000}
LIN {X 568.060,Y 10.935,Z -0.909,A -79.665,B -0.000,C -0.000,E1 0.000,E2 850.000,E3 0.000,E4 0.000,E5 0.000,E6 0.000}
LIN {X 568.060,Y 10.935,Z 2.091,A -79.665,B -0.000,C -0.000,E1 0.000,E2 850.000,E3 0.000,E4 0.000,E5 0.000,E6 0.000}
PTP {X 568.060,Y 10.935,Z 10.500,A -79.665,B -0.000,C -0.000,E1 0.000,E2 850.000,E3 0.000,E4 0.000,E5 0.000,E6 0.000}
PTP {X 498.133,Y -27.054,Z 10.500,A -79.665,B -0.000,C -0.000,E1 0.000,E2 850.000,E3 0.000,E4 0.000,E5 0.000,E6 0.000}
PTP {X 498.133,Y -27.054,Z 1.182,A -79.665,B -0.000,C -0.000,E1 0.000,E2 850.000,E3 0.000,E4 0.000,E5 0.000,E6 0.000}
LIN {X 498.133,Y -27.054,Z -1.818,A -79.665,B -0.000,C -0.000,E1 0.000,E2 850.000,E3 0.000,E4 0.000,E5 0.000,E6 0.000}
LIN {X 488.791,Y -8.555,Z -1.818,A -79.665,B -0.000,C -0.000,E1 0.000,E2 850.000,E3 0.000,E4 0.000,E5 0.000,E6 0.000}
LIN {X 504.634,Y -6.320,Z -1.818,A -79.665,B -0.000,C -0.000,E1 0.000,E2 850.000,E3 0.000,E4 0.000,E5 0.000,E6 0.000}
LIN {X 507.293,Y -5.835,Z -1.818,A -79.665,B -0.000,C -0.000,E1 0.000,E2 850.000,E3 0.000,E4 0.000,E5 0.000,E6 0.000}
LIN {X 509.905,Y -5.138,Z -1.818,A -75.054,B -0.000,C 0.000,E1 0.000,E2 850.000,E3 0.000,E4 0.000,E5 0.000,E6 0.000}
LIN {X 512.452,Y -4.233,Z -1.818,A -70.444,B -0.000,C -0.000,E1 0.000,E2 850.000,E3 0.000,E4 0.000,E5 0.000,E6 0.000}
LIN {X 514.918,Y -3.126,Z -1.818,A -65.833,B -0.000,C 0.000,E1 0.000,E2 850.000,E3 0.000,E4 0.000,E5 0.000,E6 0.000}
LIN {X 517.287,Y -1.825,Z -1.818,A -61.223,B -0.000,C 0.000,E1 0.000,E2 850.000,E3 0.000,E4 0.000,E5 0.000,E6 0.000}
LIN {X 518.813,Y -1.017,Z -1.818,A -62.098,B -0.000,C 0.000,E1 0.000,E2 850.000,E3 0.000,E4 0.000,E5 0.000,E6 0.000}
LIN {X 520.416,Y -0.378,Z -1.818,A -68.283,B -0.000,C -0.000,E1 0.000,E2 850.000,E3 0.000,E4 0.000,E5 0.000,E6 0.000}
LIN {X 522.080,Y 0.084,Z -1.818,A -74.467,B -0.000,C 0.000,E1 0.000,E2 850.000,E3 0.000,E4 0.000,E5 0.000,E6 0.000}
LIN {X 523.783,Y 0.364,Z -1.818,A -80.652,B -0.000,C 0.000,E1 0.000,E2 850.000,E3 0.000,E4 0.000,E5 0.000,E6 0.000}
LIN {X 525.507,Y 0.460,Z -1.818,A -86.837,B -0.000,C -0.000,E1 0.000,E2 850.000,E3 0.000,E4 0.000,E5 0.000,E6 0.000}
LIN {X 558.470,Y 0.459,Z -1.818,A -90.002,B -0.000,C 0.000,E1 0.000,E2 850.000,E3 0.000,E4 0.000,E5 0.000,E6 0.000}
LIN {X 560.195,Y 0.363,Z -1.818,A -93.169,B -0.000,C 0.000,E1 0.000,E2 850.000,E3 0.000,E4 0.000,E5 0.000,E6 0.000}
LIN {X 561.900,Y 0.082,Z -1.818,A -99.360,B -0.000,C -0.000,E1 0.000,E2 850.000,E3 0.000,E4 0.000,E5 0.000,E6 0.000}
LIN {X 563.565,Y -0.381,Z -1.818,A -105.550,B -0.000,C -0.000,E1 0.000,E2 850.000,E3 0.000,E4 0.000,E5 0.000,E6 0.000}
LIN {X 565.170,Y -1.021,Z -1.818,A -111.741,B -0.000,C 0.000,E1 0.000,E2 850.000,E3 0.000,E4 0.000,E5 0.000,E6 0.000}
LIN {X 566.697,Y -1.831,Z -1.818,A -117.932,B -0.000,C -0.000,E1 0.000,E2 850.000,E3 0.000,E4 0.000,E5 0.000,E6 0.000}
LIN {X 568.916,Y -3.058,Z -1.818,A -118.952,B -0.000,C -0.000,E1 0.000,E2 850.000,E3 0.000,E4 0.000,E5 0.000,E6 0.000}
LIN {X 571.221,Y -4.115,Z -1.818,A -114.626,B -0.000,C -0.000,E1 0.000,E2 850.000,E3 0.000,E4 0.000,E5 0.000,E6 0.000}
LIN {X 573.600,Y -4.995,Z -1.818,A -110.301,B -0.000,C 0.000,E1 0.000,E2 850.000,E3 0.000,E4 0.000,E5 0.000,E6 0.000}
LIN {X 576.038,Y -5.693,Z -1.818,A -105.975,B -0.000,C -0.000,E1 0.000,E2 850.000,E3 0.000,E4 0.000,E5 0.000,E6 0.000}
LIN {X 578.522,Y -6.205,Z -1.818,A -101.649,B -0.000,C 0.000,E1 0.000,E2 850.000,E3 0.000,E4 0.000,E5 0.000,E6 0.000}
LIN {X 579.486,Y -6.267,Z -1.818,A -93.703,B -0.000,C 0.000,E1 0.000,E2 850.000,E3 0.000,E4 0.000,E5 0.000,E6 0.000}
LIN {X 580.442,Y -6.136,Z -1.818,A -82.156,B -0.000,C 0.000,E1 0.000,E2 850.000,E3 0.000,E4 0.000,E5 0.000,E6 0.000}
LIN {X 581.353,Y -5.815,Z -1.818,A -70.608,B -0.000,C -0.000,E1 0.000,E2 850.000,E3 0.000,E4 0.000,E5 0.000,E6 0.000}
LIN {X 582.182,Y -5.318,Z -1.818,A -59.061,B -0.000,C 0.000,E1 0.000,E2 850.000,E3 0.000,E4 0.000,E5 0.000,E6 0.000}
LIN {X 582.894,Y -4.666,Z -1.818,A -47.513,B -0.000,C -0.000,E1 0.000,E2 850.000,E3 0.000,E4 0.000,E5 0.000,E6 0.000}
LIN {X 583.461,Y -3.884,Z -1.818,A -35.966,B -0.000,C -0.000,E1 0.000,E2 850.000,E3 0.000,E4 0.000,E5 0.000,E6 0.000}
LIN {X 583.860,Y -3.005,Z -1.818,A -24.418,B -0.000,C -0.000,E1 0.000,E2 850.000,E3 0.000,E4 0.000,E5 0.000,E6 0.000}
LIN {X 584.075,Y -2.064,Z -1.818,A -12.870,B -0.000,C 0.000,E1 0.000,E2 850.000,E3 0.000,E4 0.000,E5 0.000,E6 0.000}
LIN {X 584.098,Y -1.098,Z -1.818,A -1.323,B -0.000,C 0.000,E1 0.000,E2 850.000,E3 0.000,E4 0.000,E5 0.000,E6 0.000}
LIN {X 584.081,Y -0.821,Z -1.818,A 3.410,B -0.000,C -0.000,E1 0.000,E2 850.000,E3 0.000,E4 0.000,E5 0.000,E6 0.000}
LIN {X 584.068,Y -0.495,Z -1.818,A 2.363,B -0.000,C -0.000,E1 0.000,E2 850.000,E3 0.000,E4 0.000,E5 0.000,E6 0.000}
LIN {X 584.059,Y -0.126,Z -1.818,A 1.283,B -0.000,C -0.000,E1 0.000,E2 850.000,E3 0.000,E4 0.000,E5 0.000,E6 0.000}
LIN {X 584.059,Y 0.148,Z -1.818,A 0.001,B -0.000,C -0.000,E1 0.000,E2 850.000,E3 0.000,E4 0.000,E5 0.000,E6 0.000}
LIN {X 584.060,Y 0.355,Z -1.818,A -0.092,B -0.000,C 0.000,E1 0.000,E2 850.000,E3 0.000,E4 0.000,E5 0.000,E6 0.000}
LIN {X 584.060,Y 0.557,Z -1.818,A 0.041,B -0.000,C -0.000,E1 0.000,E2 850.000,E3 0.000,E4 0.000,E5 0.000,E6 0.000}
LIN {X 584.060,Y 0.789,Z -1.818,A 0.010,B -0.000,C -0.000,E1 0.000,E2 850.000,E3 0.000,E4 0.000,E5 0.000,E6 0.000}
LIN {X 584.060,Y 1.163,Z -1.818,A -0.029,B -0.000,C 0.000,E1 0.000,E2 850.000,E3 0.000,E4 0.000,E5 0.000,E6 0.000}
LIN {X 584.060,Y 1.745,Z -1.818,A 0.020,B -0.000,C -0.000,E1 0.000,E2 850.000,E3 0.000,E4 0.000,E5 0.000,E6 0.000}
LIN {X 584.060,Y 1.938,Z -1.818,A -0.015,B -0.000,C 0.000,E1 0.000,E2 850.000,E3 0.000,E4 0.000,E5 0.000,E6 0.000}
LIN {X 584.059,Y 2.400,Z -1.818,A 0.026,B -0.000,C -0.000,E1 0.000,E2 850.000,E3 0.000,E4 0.000,E5 0.000,E6 0.000}
LIN {X 584.059,Y 2.617,Z -1.818,A -0.013,B -0.000,C 0.000,E1 0.000,E2 850.000,E3 0.000,E4 0.000,E5 0.000,E6 0.000}
LIN {X 583.962,Y 3.865,Z -1.818,A 4.485,B -0.000,C -0.000,E1 0.000,E2 850.000,E3 0.000,E4 0.000,E5 0.000,E6 0.000}
LIN {X 583.670,Y 5.082,Z -1.818,A 13.458,B -0.000,C -0.000,E1 0.000,E2 850.000,E3 0.000,E4 0.000,E5 0.000,E6 0.000}
LIN {X 583.193,Y 6.239,Z -1.818,A 22.431,B -0.000,C -0.000,E1 0.000,E2 850.000,E3 0.000,E4 0.000,E5 0.000,E6 0.000}
LIN {X 582.541,Y 7.307,Z -1.818,A 31.403,B -0.000,C -0.000,E1 0.000,E2 850.000,E3 0.000,E4 0.000,E5 0.000,E6 0.000}
LIN {X 581.730,Y 8.261,Z -1.818,A 40.376,B -0.000,C -0.000,E1 0.000,E2 850.000,E3 0.000,E4 0.000,E5 0.000,E6 0.000}
LIN {X 580.780,Y 9.076,Z -1.818,A 49.348,B -0.000,C 0.000,E1 0.000,E2 850.000,E3 0.000,E4 0.000,E5 0.000,E6 0.000}
LIN {X 579.715,Y 9.733,Z -1.818,A 58.321,B -0.000,C 0.000,E1 0.000,E2 850.000,E3 0.000,E4 0.000,E5 0.000,E6 0.000}
LIN {X 578.561,Y 10.217,Z -1.818,A 67.294,B -0.000,C 0.000,E1 0.000,E2 850.000,E3 0.000,E4 0.000,E5 0.000,E6 0.000}
LIN {X 576.716,Y 10.941,Z -1.818,A 68.567,B -0.000,C 0.000,E1 0.000,E2 850.000,E3 0.000,E4 0.000,E5 0.000,E6 0.000}
LIN {X 574.965,Y 11.868,Z -1.818,A 62.112,B -0.000,C -0.000,E1 0.000,E2 850.000,E3 0.000,E4 0.000,E5 0.000,E6 0.000}
LIN {X 574.071,Y 12.445,Z -1.818,A 57.153,B -0.000,C 0.000,E1 0.000,E2 850.000,E3 0.000,E4 0.000,E5 0.000,E6 0.000}
LIN {X 573.213,Y 13.075,Z -1.818,A 53.687,B -0.000,C -0.000,E1 0.000,E2 850.000,E3 0.000,E4 0.000,E5 0.000,E6 0.000}
LIN {X 571.766,Y 14.081,Z -1.818,A 55.206,B -0.000,C 0.000,E1 0.000,E2 850.000,E3 0.000,E4 0.000,E5 0.000,E6 0.000}
LIN {X 570.217,Y 14.921,Z -1.818,A 61.519,B -0.000,C -0.000,E1 0.000,E2 850.000,E3 0.000,E4 0.000,E5 0.000,E6 0.000}
LIN {X 568.585,Y 15.586,Z -1.818,A 67.833,B -0.000,C 0.000,E1 0.000,E2 850.000,E3 0.000,E4 0.000,E5 0.000,E6 0.000}
LIN {X 566.890,Y 16.067,Z -1.818,A 74.146,B -0.000,C -0.000,E1 0.000,E2 850.000,E3 0.000,E4 0.000,E5 0.000,E6 0.000}
LIN {X 565.152,Y 16.359,Z -1.818,A 80.460,B -0.000,C 0.000,E1 0.000,E2 850.000,E3 0.000,E4 0.000,E5 0.000,E6 0.000}
LIN {X 563.393,Y 16.458,Z -1.818,A 86.773,B -0.000,C 0.000,E1 0.000,E2 850.000,E3 0.000,E4 0.000,E5 0.000,E6 0.000}
LIN {X 520.590,Y 16.460,Z -1.818,A 89.998,B -0.000,C 0.000,E1 0.000,E2 850.000,E3 0.000,E4 0.000,E5 0.000,E6 0.000}
LIN {X 518.832,Y 16.361,Z -1.818,A 93.220,B -0.000,C -0.000,E1 0.000,E2 850.000,E3 0.000,E4 0.000,E5 0.000,E6 0.000}
LIN {X 517.096,Y 16.069,Z -1.818,A 99.528,B -0.000,C -0.000,E1 0.000,E2 850.000,E3 0.000,E4 0.000,E5 0.000,E6 0.000}
LIN {X 515.402,Y 15.589,Z -1.818,A 105.835,B -0.000,C 0.000,E1 0.000,E2 850.000,E3 0.000,E4 0.000,E5 0.000,E6 0.000}
LIN {X 513.772,Y 14.925,Z -1.818,A 112.143,B -0.000,C -0.000,E1 0.000,E2 850.000,E3 0.000,E4 0.000,E5 0.000,E6 0.000}
LIN {X 512.224,Y 14.087,Z -1.818,A 118.450,B -0.000,C 0.000,E1 0.000,E2 850.000,E3 0.000,E4 0.000,E5 0.000,E6 0.000}
LIN {X 510.777,Y 13.083,Z -1.818,A 124.758,B -0.000,C -0.000,E1 0.000,E2 850.000,E3 0.000,E4 0.000,E5 0.000,E6 0.000}
LIN {X 509.920,Y 12.454,Z -1.818,A 126.275,B -0.000,C 0.000,E1 0.000,E2 850.000,E3 0.000,E4 0.000,E5 0.000,E6 0.000}
LIN {X 509.027,Y 11.878,Z -1.818,A 122.813,B -0.000,C -0.000,E1 0.000,E2 850.000,E3 0.000,E4 0.000,E5 0.000,E6 0.000}
LIN {X 508.008,Y 11.309,Z -1.818,A 119.183,B -0.000,C 0.000,E1 0.000,E2 850.000,E3 0.000,E4 0.000,E5 0.000,E6 0.000}
LIN {X 506.954,Y 10.809,Z -1.818,A 115.384,B -0.000,C 0.000,E1 0.000,E2 850.000,E3 0.000,E4 0.000,E5 0.000,E6 0.000}
LIN {X 505.790,Y 10.417,Z -1.818,A 108.583,B -0.000,C -0.000,E1 0.000,E2 850.000,E3 0.000,E4 0.000,E5 0.000,E6 0.000}
LIN {X 504.575,Y 10.229,Z -1.818,A 98.795,B -0.000,C 0.000,E1 0.000,E2 850.000,E3 0.000,E4 0.000,E5 0.000,E6 0.000}
LIN {X 503.347,Y 10.251,Z -1.818,A 89.008,B -0.000,C 0.000,E1 0.000,E2 850.000,E3 0.000,E4 0.000,E5 0.000,E6 0.000}
LIN {X 502.140,Y 10.480,Z -1.818,A 79.220,B -0.000,C 0.000,E1 0.000,E2 850.000,E3 0.000,E4 0.000,E5 0.000,E6 0.000}
LIN {X 500.990,Y 10.912,Z -1.818,A 69.432,B -0.000,C 0.000,E1 0.000,E2 850.000,E3 0.000,E4 0.000,E5 0.000,E6 0.000}
LIN {X 499.930,Y 11.533,Z -1.818,A 59.644,B -0.000,C -0.000,E1 0.000,E2 850.000,E3 0.000,E4 0.000,E5 0.000,E6 0.000}
LIN {X 498.991,Y 12.325,Z -1.818,A 49.856,B -0.000,C 0.000,E1 0.000,E2 850.000,E3 0.000,E4 0.000,E5 0.000,E6 0.000}
LIN {X 498.200,Y 13.265,Z -1.818,A 40.069,B -0.000,C -0.000,E1 0.000,E2 850.000,E3 0.000,E4 0.000,E5 0.000,E6 0.000}
LIN {X 497.581,Y 14.326,Z -1.818,A 30.281,B -0.000,C 0.000,E1 0.000,E2 850.000,E3 0.000,E4 0.000,E5 0.000,E6 0.000}
LIN {X 495.604,Y 18.494,Z -1.818,A 25.378,B -0.000,C 0.000,E1 0.000,E2 850.000,E3 0.000,E4 0.000,E5 0.000,E6 0.000}
LIN {X 495.280,Y 19.403,Z -1.818,A 19.609,B -0.000,C -0.000,E1 0.000,E2 850.000,E3 0.000,E4 0.000,E5 0.000,E6 0.000}
LIN {X 495.144,Y 20.358,Z -1.818,A 8.072,B -0.000,C 0.000,E1 0.000,E2 850.000,E3 0.000,E4 0.000,E5 0.000,E6 0.000}
LIN {X 495.203,Y 21.321,Z -1.818,A -3.466,B -0.000,C 0.000,E1 0.000,E2 850.000,E3 0.000,E4 0.000,E5 0.000,E6 0.000}
LIN {X 495.453,Y 22.253,Z -1.818,A -15.004,B -0.000,C -0.000,E1 0.000,E2 850.000,E3 0.000,E4 0.000,E5 0.000,E6 0.000}
LIN {X 495.884,Y 23.117,Z -1.818,A -26.541,B -0.000,C -0.000,E1 0.000,E2 850.000,E3 0.000,E4 0.000,E5 0.000,E6 0.000}
LIN {X 496.479,Y 23.876,Z -1.818,A -38.079,B -0.000,C -0.000,E1 0.000,E2 850.000,E3 0.000,E4 0.000,E5 0.000,E6 0.000}
LIN {X 497.214,Y 24.501,Z -1.818,A -49.617,B -0.000,C -0.000,E1 0.000,E2 850.000,E3 0.000,E4 0.000,E5 0.000,E6 0.000}
LIN {X 498.059,Y 24.967,Z -1.818,A -61.154,B -0.000,C 0.000,E1 0.000,E2 850.000,E3 0.000,E4 0.000,E5 0.000,E6 0.000}
LIN {X 498.980,Y 25.254,Z -1.818,A -72.692,B -0.000,C 0.000,E1 0.000,E2 850.000,E3 0.000,E4 0.000,E5 0.000,E6 0.000}
LIN {X 499.940,Y 25.351,Z -1.818,A -84.230,B -0.000,C 0.000,E1 0.000,E2 850.000,E3 0.000,E4 0.000,E5 0.000,E6 0.000}
LIN {X 500.461,Y 25.438,Z -1.818,A -80.497,B -0.000,C -0.000,E1 0.000,E2 850.000,E3 0.000,E4 0.000,E5 0.000,E6 0.000}
LIN {X 500.926,Y 25.690,Z -1.818,A -61.495,B -0.000,C 0.000,E1 0.000,E2 850.000,E3 0.000,E4 0.000,E5 0.000,E6 0.000}
LIN {X 501.256,Y 26.041,Z -1.818,A -43.328,B -0.000,C -0.000,E1 0.000,E2 850.000,E3 0.000,E4 0.000,E5 0.000,E6 0.000}
LIN {X 501.468,Y 26.474,Z -1.818,A -25.996,B -0.000,C -0.000,E1 0.000,E2 850.000,E3 0.000,E4 0.000,E5 0.000,E6 0.000}
LIN {X 501.540,Y 26.951,Z -1.818,A -8.665,B -0.000,C -0.000,E1 0.000,E2 850.000,E3 0.000,E4 0.000,E5 0.000,E6 0.000}
LIN {X 501.540,Y 36.451,Z -1.818,A 0.001,B -0.000,C -0.000,E1 0.000,E2 850.000,E3 0.000,E4 0.000,E5 0.000,E6 0.000}
LIN {X 501.540,Y 45.238,Z -1.818,A 0.002,B -0.000,C -0.000,E1 0.000,E2 850.000,E3 0.000,E4 0.000,E5 0.000,E6 0.000}
LIN {X 501.650,Y 46.063,Z -1.818,A -7.619,B -0.000,C -0.000,E1 0.000,E2 850.000,E3 0.000,E4 0.000,E5 0.000,E6 0.000}
LIN {X 501.970,Y 46.832,Z -1.818,A -22.571,B -0.000,C 0.000,E1 0.000,E2 850.000,E3 0.000,E4 0.000,E5 0.000,E6 0.000}
LIN {X 502.477,Y 47.493,Z -1.818,A -37.523,B -0.000,C -0.000,E1 0.000,E2 850.000,E3 0.000,E4 0.000,E5 0.000,E6 0.000}
LIN {X 503.137,Y 48.000,Z -1.818,A -52.475,B -0.000,C 0.000,E1 0.000,E2 850.000,E3 0.000,E4 0.000,E5 0.000,E6 0.000}
LIN {X 503.906,Y 48.320,Z -1.818,A -67.427,B -0.000,C -0.000,E1 0.000,E2 850.000,E3 0.000,E4 0.000,E5 0.000,E6 0.000}
LIN {X 504.732,Y 48.430,Z -1.818,A -82.379,B -0.000,C 0.000,E1 0.000,E2 850.000,E3 0.000,E4 0.000,E5 0.000,E6 0.000}
LIN {X 542.937,Y 48.430,Z -1.818,A -90.000,B -0.000,C -0.000,E1 0.000,E2 850.000,E3 0.000,E4 0.000,E5 0.000,E6 0.000}
LIN {X 543.721,Y 48.330,Z -1.818,A -97.243,B -0.000,C -0.000,E1 0.000,E2 850.000,E3 0.000,E4 0.000,E5 0.000,E6 0.000}
LIN {X 544.457,Y 48.041,Z -1.818,A -111.440,B -0.000,C 0.000,E1 0.000,E2 850.000,E3 0.000,E4 0.000,E5 0.000,E6 0.000}
LIN {X 545.100,Y 47.580,Z -1.818,A -125.637,B -0.000,C -0.000,E1 0.000,E2 850.000,E3 0.000,E4 0.000,E5 0.000,E6 0.000}
LIN {X 545.610,Y 46.976,Z -1.818,A -139.833,B -0.000,C -0.000,E1 0.000,E2 850.000,E3 0.000,E4 0.000,E5 0.000,E6 0.000}
LIN {X 545.956,Y 46.266,Z -1.818,A -154.019,B -0.000,C 0.000,E1 0.000,E2 850.000,E3 0.000,E4 0.000,E5 0.000,E6 0.000}
LIN {X 546.118,Y 45.493,Z -1.818,A -168.194,B -0.000,C -0.000,E1 0.000,E2 850.000,E3 0.000,E4 0.000,E5 0.000,E6 0.000}
LIN {X 546.085,Y 44.704,Z -1.818,A 177.632,B -0.000,C 0.000,E1 0.000,E2 850.000,E3 0.000,E4 0.000,E5 0.000,E6 0.000}
LIN {X 545.860,Y 43.947,Z -1.818,A 163.457,B -0.000,C -0.000,E1 0.000,E2 850.000,E3 0.000,E4 0.000,E5 0.000,E6 0.000}
LIN {X 545.457,Y 43.268,Z -1.818,A 149.282,B -0.000,C -0.000,E1 0.000,E2 850.000,E3 0.000,E4 0.000,E5 0.000,E6 0.000}
LIN {X 544.899,Y 42.709,Z -1.818,A 135.107,B -0.000,C -0.000,E1 0.000,E2 850.000,E3 0.000,E4 0.000,E5 0.000,E6 0.000}
LIN {X 544.222,Y 42.303,Z -1.818,A 120.933,B -0.000,C 0.000,E1 0.000,E2 850.000,E3 0.000,E4 0.000,E5 0.000,E6 0.000}
LIN {X 543.466,Y 42.075,Z -1.818,A 106.758,B -0.000,C 0.000,E1 0.000,E2 850.000,E3 0.000,E4 0.000,E5 0.000,E6 0.000}
LIN {X 510.268,Y 36.505,Z -1.818,A 99.525,B -0.000,C -0.000,E1 0.000,E2 850.000,E3 0.000,E4 0.000,E5 0.000,E6 0.000}
LIN {X 509.741,Y 36.318,Z -1.818,A 109.584,B -0.000,C -0.000,E1 0.000,E2 850.000,E3 0.000,E4 0.000,E5 0.000,E6 0.000}
LIN {X 509.311,Y 35.961,Z -1.818,A 129.703,B -0.000,C -0.000,E1 0.000,E2 850.000,E3 0.000,E4 0.000,E5 0.000,E6 0.000}
LIN {X 509.030,Y 35.478,Z -1.818,A 149.822,B -0.000,C -0.000,E1 0.000,E2 850.000,E3 0.000,E4 0.000,E5 0.000,E6 0.000}
LIN {X 508.933,Y 34.927,Z -1.818,A 169.941,B -0.000,C 0.000,E1 0.000,E2 850.000,E3 0.000,E4 0.000,E5 0.000,E6 0.000}
LIN {X 508.933,Y 34.060,Z -1.818,A 180.000,B -0.000,C 0.000,E1 0.000,E2 850.000,E3 0.000,E4 0.000,E5 0.000,E6 0.000}
LIN {X 509.011,Y 33.566,Z -1.818,A -171.000,B -0.000,C 0.000,E1 0.000,E2 850.000,E3 0.000,E4 0.000,E5 0.000,E6 0.000}
LIN {X 509.238,Y 33.120,Z -1.818,A -153.001,B -0.000,C 0.000,E1 0.000,E2 850.000,E3 0.000,E4 0.000,E5 0.000,E6 0.000}
LIN {X 509.592,Y 32.766,Z -1.818,A -135.001,B -0.000,C 0.000,E1 0.000,E2 850.000,E3 0.000,E4 0.000,E5 0.000,E6 0.000}
LIN {X 510.038,Y 32.538,Z -1.818,A -117.001,B -0.000,C -0.000,E1 0.000,E2 850.000,E3 0.000,E4 0.000,E5 0.000,E6 0.000}
LIN {X 510.533,Y 32.460,Z -1.818,A -99.002,B -0.000,C -0.000,E1 0.000,E2 850.000,E3 0.000,E4 0.000,E5 0.000,E6 0.000}
LIN {X 579.268,Y 32.458,Z -1.818,A -90.002,B -0.000,C 0.000,E1 0.000,E2 850.000,E3 0.000,E4 0.000,E5 0.000,E6 0.000}
LIN {X 580.092,Y 32.348,Z -1.818,A -97.613,B -0.000,C -0.000,E1 0.000,E2 850.000,E3 0.000,E4 0.000,E5 0.000,E6 0.000}
LIN {X 580.860,Y 32.029,Z -1.818,A -112.544,B -0.000,C 0.000,E1 0.000,E2 850.000,E3 0.000,E4 0.000,E5 0.000,E6 0.000}
LIN {X 581.520,Y 31.523,Z -1.818,A -127.476,B -0.000,C -0.000,E1 0.000,E2 850.000,E3 0.000,E4 0.000,E5 0.000,E6 0.000}
LIN {X 582.027,Y 30.864,Z -1.818,A -142.407,B -0.000,C 0.000,E1 0.000,E2 850.000,E3 0.000,E4 0.000,E5 0.000,E6 0.000}
LIN {X 582.348,Y 30.097,Z -1.818,A -157.339,B -0.000,C -0.000,E1 0.000,E2 850.000,E3 0.000,E4 0.000,E5 0.000,E6 0.000}
LIN {X 582.431,Y 29.685,Z -1.818,A -168.567,B -0.000,C -0.000,E1 0.000,E2 850.000,E3 0.000,E4 0.000,E5 0.000,E6 0.000}
LIN {X 582.460,Y 29.266,Z -1.818,A -176.092,B -0.000,C -0.000,E1 0.000,E2 850.000,E3 0.000,E4 0.000,E5 0.000,E6 0.000}
LIN {X 582.460,Y 26.935,Z -1.818,A -180.000,B -0.000,C -0.000,E1 0.000,E2 850.000,E3 0.000,E4 0.000,E5 0.000,E6 0.000}
LIN {X 582.532,Y 26.459,Z -1.818,A -171.341,B -0.000,C 0.000,E1 0.000,E2 850.000,E3 0.000,E4 0.000,E5 0.000,E6 0.000}
LIN {X 582.743,Y 26.026,Z -1.818,A -154.023,B -0.000,C 0.000,E1 0.000,E2 850.000,E3 0.000,E4 0.000,E5 0.000,E6 0.000}
LIN {X 583.074,Y 25.675,Z -1.818,A -136.704,B -0.000,C 0.000,E1 0.000,E2 850.000,E3 0.000,E4 0.000,E5 0.000,E6 0.000}
LIN {X 583.538,Y 25.423,Z -1.818,A -118.534,B -0.000,C -0.000,E1 0.000,E2 850.000,E3 0.000,E4 0.000,E5 0.000,E6 0.000}
LIN {X 584.060,Y 25.335,Z -1.818,A -99.511,B -0.000,C 0.000,E1 0.000,E2 850.000,E3 0.000,E4 0.000,E5 0.000,E6 0.000}
LIN {X 600.060,Y 25.335,Z -1.818,A -179.998,B -0.000,C -0.000,E1 0.000,E2 850.000,E3 0.000,E4 0.000,E5 0.000,E6 0.000}
LIN {X 600.060,Y 25.335,Z 1.182,A -179.998,B -0.000,C -0.000,E1 0.000,E2 850.000,E3 0.000,E4 0.000,E5 0.000,E6 0.000}
PTP {X 600.060,Y 25.335,Z 10.500,A -179.998,B -0.000,C -0.000,E1 0.000,E2 850.000,E3 0.000,E4 0.000,E5 0.000,E6 0.000}
PTP {X 582.460,Y 43.274,Z 10.500,A -179.998,B -0.000,C -0.000,E1 0.000,E2 850.000,E3 0.000,E4 0.000,E5 0.000,E6 0.000}
PTP {X 582.460,Y 43.274,Z 1.182,A -179.998,B -0.000,C -0.000,E1 0.000,E2 850.000,E3 0.000,E4 0.000,E5 0.000,E6 0.000}
LIN {X 582.460,Y 43.274,Z -1.818,A -179.998,B -0.000,C -0.000,E1 0.000,E2 850.000,E3 0.000,E4 0.000,E5 0.000,E6 0.000}
LIN {X 598.460,Y 43.275,Z -1.818,A -179.998,B -0.000,C -0.000,E1 0.000,E2 850.000,E3 0.000,E4 0.000,E5 0.000,E6 0.000}
LIN {X 598.460,Y 41.311,Z -1.818,A -179.998,B -0.000,C -0.000,E1 0.000,E2 850.000,E3 0.000,E4 0.000,E5 0.000,E6 0.000}
LIN {X 598.354,Y 40.500,Z -1.818,A 172.516,B -0.000,C -0.000,E1 0.000,E2 850.000,E3 0.000,E4 0.000,E5 0.000,E6 0.000}
LIN {X 598.045,Y 39.743,Z -1.818,A 157.837,B -0.000,C 0.000,E1 0.000,E2 850.000,E3 0.000,E4 0.000,E5 0.000,E6 0.000}
LIN {X 597.555,Y 39.089,Z -1.818,A 143.158,B -0.000,C -0.000,E1 0.000,E2 850.000,E3 0.000,E4 0.000,E5 0.000,E6 0.000}
LIN {X 596.915,Y 38.580,Z -1.818,A 128.478,B -0.000,C 0.000,E1 0.000,E2 850.000,E3 0.000,E4 0.000,E5 0.000,E6 0.000}
LIN {X 596.167,Y 38.250,Z -1.818,A 113.799,B -0.000,C -0.000,E1 0.000,E2 850.000,E3 0.000,E4 0.000,E5 0.000,E6 0.000}
LIN {X 595.360,Y 38.120,Z -1.818,A 99.119,B -0.000,C 0.000,E1 0.000,E2 850.000,E3 0.000,E4 0.000,E5 0.000,E6 0.000}
LIN {X 594.546,Y 38.200,Z -1.818,A 84.440,B -0.000,C -0.000,E1 0.000,E2 850.000,E3 0.000,E4 0.000,E5 0.000,E6 0.000}
LIN {X 593.779,Y 38.482,Z -1.818,A 69.760,B -0.000,C 0.000,E1 0.000,E2 850.000,E3 0.000,E4 0.000,E5 0.000,E6 0.000}
LIN {X 593.108,Y 38.950,Z -1.818,A 55.081,B -0.000,C -0.000,E1 0.000,E2 850.000,E3 0.000,E4 0.000,E5 0.000,E6 0.000}
LIN {X 592.578,Y 39.573,Z -1.818,A 40.401,B -0.000,C -0.000,E1 0.000,E2 850.000,E3 0.000,E4 0.000,E5 0.000,E6 0.000}
LIN {X 592.314,Y 39.982,Z -1.818,A 32.916,B -0.000,C -0.000,E1 0.000,E2 850.000,E3 0.000,E4 0.000,E5 0.000,E6 0.000}
LIN {X 592.271,Y 40.045,Z -1.818,A 34.284,B -0.000,C -0.000,E1 0.000,E2 850.000,E3 0.000,E4 0.000,E5 0.000,E6 0.000}
LIN {X 592.225,Y 40.106,Z -1.818,A 37.020,B -0.000,C 0.000,E1 0.000,E2 850.000,E3 0.000,E4 0.000,E5 0.000,E6 0.000}
LIN {X 592.055,Y 40.344,Z -1.818,A 35.514,B -0.000,C 0.000,E1 0.000,E2 850.000,E3 0.000,E4 0.000,E5 0.000,E6 0.000}
LIN {X 591.907,Y 40.597,Z -1.818,A 30.269,B -0.000,C 0.000,E1 0.000,E2 850.000,E3 0.000,E4 0.000,E5 0.000,E6 0.000}
LIN {X 591.862,Y 40.678,Z -1.818,A 29.051,B -0.000,C 0.000,E1 0.000,E2 850.000,E3 0.000,E4 0.000,E5 0.000,E6 0.000}
LIN {X 591.813,Y 40.756,Z -1.818,A 32.363,B -0.000,C -0.000,E1 0.000,E2 850.000,E3 0.000,E4 0.000,E5 0.000,E6 0.000}
LIN {X 590.965,Y 42.012,Z -1.818,A 34.018,B -0.000,C -0.000,E1 0.000,E2 850.000,E3 0.000,E4 0.000,E5 0.000,E6 0.000}
LIN {X 590.855,Y 42.157,Z -1.818,A 37.289,B -0.000,C 0.000,E1 0.000,E2 850.000,E3 0.000,E4 0.000,E5 0.000,E6 0.000}
LIN {X 590.728,Y 42.288,Z -1.818,A 43.829,B -0.000,C 0.000,E1 0.000,E2 850.000,E3 0.000,E4 0.000,E5 0.000,E6 0.000}
LIN {X 590.505,Y 42.496,Z -1.818,A 47.099,B -0.000,C -0.000,E1 0.000,E2 850.000,E3 0.000,E4 0.000,E5 0.000,E6 0.000}
LIN {X 590.006,Y 43.091,Z -1.818,A 39.982,B -0.000,C -0.000,E1 0.000,E2 850.000,E3 0.000,E4 0.000,E5 0.000,E6 0.000}
LIN {X 589.665,Y 43.789,Z -1.818,A 26.038,B -0.000,C 0.000,E1 0.000,E2 850.000,E3 0.000,E4 0.000,E5 0.000,E6 0.000}
LIN {X 589.639,Y 43.860,Z -1.818,A 20.167,B -0.000,C -0.000,E1 0.000,E2 850.000,E3 0.000,E4 0.000,E5 0.000,E6 0.000}
LIN {X 589.609,Y 43.930,Z -1.818,A 22.871,B -0.000,C -0.000,E1 0.000,E2 850.000,E3 0.000,E4 0.000,E5 0.000,E6 0.000}
LIN {X 589.379,Y 44.688,Z -1.818,A 16.858,B -0.000,C 0.000,E1 0.000,E2 850.000,E3 0.000,E4 0.000,E5 0.000,E6 0.000}
LIN {X 589.343,Y 45.480,Z -1.818,A 2.630,B -0.000,C -0.000,E1 0.000,E2 850.000,E3 0.000,E4 0.000,E5 0.000,E6 0.000}
LIN {X 589.502,Y 46.257,Z -1.818,A -11.599,B -0.000,C 0.000,E1 0.000,E2 850.000,E3 0.000,E4 0.000,E5 0.000,E6 0.000}
LIN {X 589.848,Y 46.970,Z -1.818,A -25.827,B -0.000,C -0.000,E1 0.000,E2 850.000,E3 0.000,E4 0.000,E5 0.000,E6 0.000}
LIN {X 590.358,Y 47.577,Z -1.818,A -40.055,B -0.000,C 0.000,E1 0.000,E2 850.000,E3 0.000,E4 0.000,E5 0.000,E6 0.000}
LIN {X 591.001,Y 48.040,Z -1.818,A -54.284,B -0.000,C 0.000,E1 0.000,E2 850.000,E3 0.000,E4 0.000,E5 0.000,E6 0.000}
LIN {X 591.739,Y 48.330,Z -1.818,A -68.512,B -0.000,C -0.000,E1 0.000,E2 850.000,E3 0.000,E4 0.000,E5 0.000,E6 0.000}
LIN {X 592.525,Y 48.430,Z -1.818,A -82.741,B -0.000,C 0.000,E1 0.000,E2 850.000,E3 0.000,E4 0.000,E5 0.000,E6 0.000}
LIN {X 595.268,Y 48.430,Z -1.818,A -90.000,B -0.000,C -0.000,E1 0.000,E2 850.000,E3 0.000,E4 0.000,E5 0.000,E6 0.000}
LIN {X 596.094,Y 48.320,Z -1.818,A -97.621,B -0.000,C -0.000,E1 0.000,E2 850.000,E3 0.000,E4 0.000,E5 0.000,E6 0.000}
LIN {X 596.863,Y 48.000,Z -1.818,A -112.572,B -0.000,C 0.000,E1 0.000,E2 850.000,E3 0.000,E4 0.000,E5 0.000,E6 0.000}
LIN {X 597.523,Y 47.493,Z -1.818,A -127.524,B -0.000,C -0.000,E1 0.000,E2 850.000,E3 0.000,E4 0.000,E5 0.000,E6 0.000}
LIN {X 598.030,Y 46.832,Z -1.818,A -142.475,B -0.000,C 0.000,E1 0.000,E2 850.000,E3 0.000,E4 0.000,E5 0.000,E6 0.000}
LIN {X 598.350,Y 46.064,Z -1.818,A -157.426,B -0.000,C -0.000,E1 0.000,E2 850.000,E3 0.000,E4 0.000,E5 0.000,E6 0.000}
LIN {X 598.460,Y 45.238,Z -1.818,A -172.378,B -0.000,C 0.000,E1 0.000,E2 850.000,E3 0.000,E4 0.000,E5 0.000,E6 0.000}
LIN {X 598.460,Y 43.275,Z -1.818,A -179.998,B -0.000,C -0.000,E1 0.000,E2 850.000,E3 0.000,E4 0.000,E5 0.000,E6 0.000}
LIN {X 582.460,Y 43.274,Z -1.818,A 0.001,B -0.000,C -0.000,E1 0.000,E2 850.000,E3 0.000,E4 0.000,E5 0.000,E6 0.000}
LIN {X 582.460,Y 43.274,Z 1.182,A 0.001,B -0.000,C -0.000,E1 0.000,E2 850.000,E3 0.000,E4 0.000,E5 0.000,E6 0.000}
PTP {X 582.460,Y 43.274,Z 10.500,A 0.001,B -0.000,C -0.000,E1 0.000,E2 850.000,E3 0.000,E4 0.000,E5 0.000,E6 0.000}
PTP {X 515.941,Y 12.706,Z 10.500,A 0.001,B -0.000,C -0.000,E1 0.000,E2 850.000,E3 0.000,E4 0.000,E5 0.000,E6 0.000}
PTP {X 515.941,Y 12.706,Z 1.182,A 0.001,B -0.000,C -0.000,E1 0.000,E2 850.000,E3 0.000,E4 0.000,E5 0.000,E6 0.000}
LIN {X 515.941,Y 12.706,Z -1.818,A 0.001,B -0.000,C -0.000,E1 0.000,E2 850.000,E3 0.000,E4 0.000,E5 0.000,E6 0.000}
LIN {X 499.941,Y 10.951,Z -1.818,A 0.001,B -0.000,C -0.000,E1 0.000,E2 850.000,E3 0.000,E4 0.000,E5 0.000,E6 0.000}
LIN {X 499.940,Y 26.951,Z -1.818,A 0.001,B -0.000,C -0.000,E1 0.000,E2 850.000,E3 0.000,E4 0.000,E5 0.000,E6 0.000}
LIN {X 499.940,Y 36.451,Z -1.818,A 0.001,B -0.000,C -0.000,E1 0.000,E2 850.000,E3 0.000,E4 0.000,E5 0.000,E6 0.000}
LIN {X 499.940,Y 49.970,Z -1.818,A 0.002,B -0.000,C -0.000,E1 0.000,E2 850.000,E3 0.000,E4 0.000,E5 0.000,E6 0.000}
LIN {X 499.957,Y 50.012,Z -1.818,A -22.498,B -0.000,C 0.000,E1 0.000,E2 850.000,E3 0.000,E4 0.000,E5 0.000,E6 0.000}
LIN {X 500.000,Y 50.030,Z -1.818,A -67.500,B -0.000,C -0.000,E1 0.000,E2 850.000,E3 0.000,E4 0.000,E5 0.000,E6 0.000}
LIN {X 600.000,Y 50.030,Z -1.818,A -90.000,B -0.000,C -0.000,E1 0.000,E2 850.000,E3 0.000,E4 0.000,E5 0.000,E6 0.000}
LIN {X 600.043,Y 50.012,Z -1.818,A -112.499,B -0.000,C 0.000,E1 0.000,E2 850.000,E3 0.000,E4 0.000,E5 0.000,E6 0.000}
LIN {X 600.060,Y 49.970,Z -1.818,A -157.499,B -0.000,C -0.000,E1 0.000,E2 850.000,E3 0.000,E4 0.000,E5 0.000,E6 0.000}
LIN {X 600.060,Y 34.491,Z -1.818,A 180.000,B -0.000,C 0.000,E1 0.000,E2 850.000,E3 0.000,E4 0.000,E5 0.000,E6 0.000}
LIN {X 599.984,Y 33.910,Z -1.818,A 172.512,B -0.000,C -0.000,E1 0.000,E2 850.000,E3 0.000,E4 0.000,E5 0.000,E6 0.000}
LIN {X 599.961,Y 33.871,Z -1.818,A 150.242,B -0.000,C -0.000,E1 0.000,E2 850.000,E3 0.000,E4 0.000,E5 0.000,E6 0.000}
LIN {X 599.917,Y 33.858,Z -1.818,A 105.699,B -0.000,C 0.000,E1 0.000,E2 850.000,E3 0.000,E4 0.000,E5 0.000,E6 0.000}
LIN {X 597.471,Y 34.140,Z -1.818,A 83.427,B -0.000,C -0.000,E1 0.000,E2 850.000,E3 0.000,E4 0.000,E5 0.000,E6 0.000}
LIN {X 595.874,Y 34.498,Z -1.818,A 77.355,B -0.000,C 0.000,E1 0.000,E2 850.000,E3 0.000,E4 0.000,E5 0.000,E6 0.000}
LIN {X 594.318,Y 35.005,Z -1.818,A 71.955,B -0.000,C -0.000,E1 0.000,E2 850.000,E3 0.000,E4 0.000,E5 0.000,E6 0.000}
LIN {X 592.816,Y 35.657,Z -1.818,A 66.556,B -0.000,C 0.000,E1 0.000,E2 850.000,E3 0.000,E4 0.000,E5 0.000,E6 0.000}
LIN {X 591.382,Y 36.446,Z -1.818,A 61.156,B -0.000,C -0.000,E1 0.000,E2 850.000,E3 0.000,E4 0.000,E5 0.000,E6 0.000}
LIN {X 590.029,Y 37.367,Z -1.818,A 55.756,B -0.000,C 0.000,E1 0.000,E2 850.000,E3 0.000,E4 0.000,E5 0.000,E6 0.000}
LIN {X 590.005,Y 37.415,Z -1.818,A 26.897,B -0.000,C 0.000,E1 0.000,E2 850.000,E3 0.000,E4 0.000,E5 0.000,E6 0.000}
LIN {X 590.028,Y 37.462,Z -1.818,A -25.421,B -0.000,C -0.000,E1 0.000,E2 850.000,E3 0.000,E4 0.000,E5 0.000,E6 0.000}
LIN {X 591.357,Y 38.516,Z -1.818,A -51.579,B -0.000,C 0.000,E1 0.000,E2 850.000,E3 0.000,E4 0.000,E5 0.000,E6 0.000}
LIN {X 590.971,Y 39.112,Z -1.818,A 32.916,B -0.000,C -0.000,E1 0.000,E2 850.000,E3 0.000,E4 0.000,E5 0.000,E6 0.000}
LIN {X 590.599,Y 39.153,Z -1.818,A 83.793,B -0.000,C -0.000,E1 0.000,E2 850.000,E3 0.000,E4 0.000,E5 0.000,E6 0.000}
LIN {X 590.563,Y 39.170,Z -1.818,A 64.141,B -0.000,C -0.000,E1 0.000,E2 850.000,E3 0.000,E4 0.000,E5 0.000,E6 0.000}
LIN {X 590.546,Y 39.207,Z -1.818,A 24.836,B -0.000,C 0.000,E1 0.000,E2 850.000,E3 0.000,E4 0.000,E5 0.000,E6 0.000}
LIN {X 590.487,Y 39.861,Z -1.818,A 5.183,B -0.000,C 0.000,E1 0.000,E2 850.000,E3 0.000,E4 0.000,E5 0.000,E6 0.000}
LIN {X 589.639,Y 41.116,Z -1.818,A 34.018,B -0.000,C -0.000,E1 0.000,E2 850.000,E3 0.000,E4 0.000,E5 0.000,E6 0.000}
LIN {X 589.172,Y 41.551,Z -1.818,A 47.099,B -0.000,C -0.000,E1 0.000,E2 850.000,E3 0.000,E4 0.000,E5 0.000,E6 0.000}
LIN {X 587.874,Y 41.533,Z -1.818,A 90.777,B -0.000,C -0.000,E1 0.000,E2 850.000,E3 0.000,E4 0.000,E5 0.000,E6 0.000}
LIN {X 587.874,Y 41.322,Z -1.818,A 179.940,B -0.000,C 0.000,E1 0.000,E2 850.000,E3 0.000,E4 0.000,E5 0.000,E6 0.000}
LIN {X 587.829,Y 41.265,Z -1.818,A 141.868,B -0.000,C -0.000,E1 0.000,E2 850.000,E3 0.000,E4 0.000,E5 0.000,E6 0.000}
LIN {X 587.763,Y 41.292,Z -1.818,A 68.282,B -0.000,C 0.000,E1 0.000,E2 850.000,E3 0.000,E4 0.000,E5 0.000,E6 0.000}
LIN {X 587.364,Y 41.942,Z -1.818,A 31.489,B -0.000,C -0.000,E1 0.000,E2 850.000,E3 0.000,E4 0.000,E5 0.000,E6 0.000}
LIN {X 587.356,Y 41.980,Z -1.818,A 12.865,B -0.000,C -0.000,E1 0.000,E2 850.000,E3 0.000,E4 0.000,E5 0.000,E6 0.000}
LIN {X 587.372,Y 42.015,Z -1.818,A -24.384,B -0.000,C -0.000,E1 0.000,E2 850.000,E3 0.000,E4 0.000,E5 0.000,E6 0.000}
LIN {X 587.452,Y 42.101,Z -1.818,A -43.008,B -0.000,C -0.000,E1 0.000,E2 850.000,E3 0.000,E4 0.000,E5 0.000,E6 0.000}
LIN {X 587.472,Y 42.115,Z -1.818,A -54.757,B -0.000,C 0.000,E1 0.000,E2 850.000,E3 0.000,E4 0.000,E5 0.000,E6 0.000}
LIN {X 587.496,Y 42.120,Z -1.818,A -78.257,B -0.000,C -0.000,E1 0.000,E2 850.000,E3 0.000,E4 0.000,E5 0.000,E6 0.000}
LIN {X 587.754,Y 42.120,Z -1.818,A -90.005,B -0.000,C 0.000,E1 0.000,E2 850.000,E3 0.000,E4 0.000,E5 0.000,E6 0.000}
LIN {X 587.754,Y 42.530,Z -1.818,A 0.001,B -0.000,C -0.000,E1 0.000,E2 850.000,E3 0.000,E4 0.000,E5 0.000,E6 0.000}
LIN {X 587.771,Y 42.572,Z -1.818,A -22.282,B -0.000,C 0.000,E1 0.000,E2 850.000,E3 0.000,E4 0.000,E5 0.000,E6 0.000}
LIN {X 587.813,Y 42.590,Z -1.818,A -66.841,B -0.000,C -0.000,E1 0.000,E2 850.000,E3 0.000,E4 0.000,E5 0.000,E6 0.000}
LIN {X 588.230,Y 42.596,Z -1.818,A -89.121,B -0.000,C -0.000,E1 0.000,E2 850.000,E3 0.000,E4 0.000,E5 0.000,E6 0.000}
LIN {X 588.150,Y 43.273,Z -1.818,A 6.741,B -0.000,C 0.000,E1 0.000,E2 850.000,E3 0.000,E4 0.000,E5 0.000,E6 0.000}
LIN {X 587.767,Y 43.297,Z -1.818,A 86.493,B -0.000,C 0.000,E1 0.000,E2 850.000,E3 0.000,E4 0.000,E5 0.000,E6 0.000}
LIN {X 587.579,Y 43.213,Z -1.818,A 114.052,B -0.000,C -0.000,E1 0.000,E2 850.000,E3 0.000,E4 0.000,E5 0.000,E6 0.000}
LIN {X 587.555,Y 43.208,Z -1.818,A 102.024,B -0.000,C -0.000,E1 0.000,E2 850.000,E3 0.000,E4 0.000,E5 0.000,E6 0.000}
LIN {X 587.154,Y 43.208,Z -1.818,A 89.996,B -0.000,C 0.000,E1 0.000,E2 850.000,E3 0.000,E4 0.000,E5 0.000,E6 0.000}
LIN {X 587.126,Y 43.215,Z -1.818,A 76.189,B -0.000,C 0.000,E1 0.000,E2 850.000,E3 0.000,E4 0.000,E5 0.000,E6 0.000}
LIN {X 587.104,Y 43.234,Z -1.818,A 48.575,B -0.000,C 0.000,E1 0.000,E2 850.000,E3 0.000,E4 0.000,E5 0.000,E6 0.000}
LIN {X 586.647,Y 43.208,Z -1.818,A 93.216,B -0.000,C -0.000,E1 0.000,E2 850.000,E3 0.000,E4 0.000,E5 0.000,E6 0.000}
LIN {X 586.588,Y 43.246,Z -1.818,A 57.258,B -0.000,C 0.000,E1 0.000,E2 850.000,E3 0.000,E4 0.000,E5 0.000,E6 0.000}
LIN {X 586.606,Y 43.314,Z -1.818,A -14.660,B -0.000,C -0.000,E1 0.000,E2 850.000,E3 0.000,E4 0.000,E5 0.000,E6 0.000}
LIN {X 586.690,Y 43.383,Z -1.818,A -50.618,B -0.000,C -0.000,E1 0.000,E2 850.000,E3 0.000,E4 0.000,E5 0.000,E6 0.000}
LIN {X 586.717,Y 44.675,Z -1.818,A -1.198,B -0.000,C 0.000,E1 0.000,E2 850.000,E3 0.000,E4 0.000,E5 0.000,E6 0.000}
LIN {X 586.534,Y 44.675,Z -1.818,A 90.000,B -0.000,C 0.000,E1 0.000,E2 850.000,E3 0.000,E4 0.000,E5 0.000,E6 0.000}
LIN {X 586.494,Y 43.354,Z -1.818,A 178.239,B -0.000,C 0.000,E1 0.000,E2 850.000,E3 0.000,E4 0.000,E5 0.000,E6 0.000}
LIN {X 586.501,Y 42.847,Z -1.818,A -179.166,B -0.000,C -0.000,E1 0.000,E2 850.000,E3 0.000,E4 0.000,E5 0.000,E6 0.000}
LIN {X 586.902,Y 41.668,Z -1.818,A -161.223,B -0.000,C -0.000,E1 0.000,E2 850.000,E3 0.000,E4 0.000,E5 0.000,E6 0.000}
LIN {X 586.898,Y 41.622,Z -1.818,A 175.967,B -0.000,C 0.000,E1 0.000,E2 850.000,E3 0.000,E4 0.000,E5 0.000,E6 0.000}
LIN {X 586.863,Y 41.592,Z -1.818,A 130.345,B -0.000,C -0.000,E1 0.000,E2 850.000,E3 0.000,E4 0.000,E5 0.000,E6 0.000}
LIN {X 586.434,Y 41.456,Z -1.818,A 107.535,B -0.000,C 0.000,E1 0.000,E2 850.000,E3 0.000,E4 0.000,E5 0.000,E6 0.000}
LIN {X 586.394,Y 41.457,Z -1.818,A 88.316,B -0.000,C 0.000,E1 0.000,E2 850.000,E3 0.000,E4 0.000,E5 0.000,E6 0.000}
LIN {X 586.364,Y 41.483,Z -1.818,A 49.880,B -0.000,C 0.000,E1 0.000,E2 850.000,E3 0.000,E4 0.000,E5 0.000,E6 0.000}
LIN {X 585.628,Y 42.856,Z -1.818,A 28.175,B -0.000,C 0.000,E1 0.000,E2 850.000,E3 0.000,E4 0.000,E5 0.000,E6 0.000}
LIN {X 585.015,Y 44.287,Z -1.818,A 23.201,B -0.000,C -0.000,E1 0.000,E2 850.000,E3 0.000,E4 0.000,E5 0.000,E6 0.000}
LIN {X 584.528,Y 45.767,Z -1.818,A 18.226,B -0.000,C 0.000,E1 0.000,E2 850.000,E3 0.000,E4 0.000,E5 0.000,E6 0.000}
LIN {X 584.171,Y 47.283,Z -1.818,A 13.252,B -0.000,C -0.000,E1 0.000,E2 850.000,E3 0.000,E4 0.000,E5 0.000,E6 0.000}
LIN {X 510.533,Y 34.927,Z -1.818,A 99.525,B -0.000,C -0.000,E1 0.000,E2 850.000,E3 0.000,E4 0.000,E5 0.000,E6 0.000}
LIN {X 510.533,Y 34.060,Z -1.818,A 180.000,B -0.000,C 0.000,E1 0.000,E2 850.000,E3 0.000,E4 0.000,E5 0.000,E6 0.000}
LIN {X 579.268,Y 34.058,Z -1.818,A -90.002,B -0.000,C 0.000,E1 0.000,E2 850.000,E3 0.000,E4 0.000,E5 0.000,E6 0.000}
LIN {X 583.671,Y 34.058,Z -1.818,A -90.002,B -0.000,C 0.000,E1 0.000,E2 850.000,E3 0.000,E4 0.000,E5 0.000,E6 0.000}
LIN {X 584.013,Y 34.054,Z -1.818,A -90.561,B -0.000,C 0.000,E1 0.000,E2 850.000,E3 0.000,E4 0.000,E5 0.000,E6 0.000}
LIN {X 584.055,Y 34.036,Z -1.818,A -113.233,B -0.000,C 0.000,E1 0.000,E2 850.000,E3 0.000,E4 0.000,E5 0.000,E6 0.000}
LIN {X 584.072,Y 33.993,Z -1.818,A -158.578,B -0.000,C -0.000,E1 0.000,E2 850.000,E3 0.000,E4 0.000,E5 0.000,E6 0.000}
LIN {X 584.066,Y 33.689,Z -1.818,A 178.750,B -0.000,C 0.000,E1 0.000,E2 850.000,E3 0.000,E4 0.000,E5 0.000,E6 0.000}
LIN {X 584.060,Y 33.415,Z -1.818,A 178.750,B -0.000,C 0.000,E1 0.000,E2 850.000,E3 0.000,E4 0.000,E5 0.000,E6 0.000}
LIN {X 584.060,Y 26.935,Z -1.818,A 180.000,B -0.000,C 0.000,E1 0.000,E2 850.000,E3 0.000,E4 0.000,E5 0.000,E6 0.000}
LIN {X 584.060,Y 10.935,Z -1.818,A -79.665,B -0.000,C -0.000,E1 0.000,E2 850.000,E3 0.000,E4 0.000,E5 0.000,E6 0.000}
LIN {X 568.060,Y 10.935,Z -1.818,A -79.665,B -0.000,C -0.000,E1 0.000,E2 850.000,E3 0.000,E4 0.000,E5 0.000,E6 0.000}
LIN {X 568.060,Y 10.935,Z 1.182,A -79.665,B -0.000,C -0.000,E1 0.000,E2 850.000,E3 0.000,E4 0.000,E5 0.000,E6 0.000}
PTP {X 568.060,Y 10.935,Z 10.500,A -79.665,B -0.000,C -0.000,E1 0.000,E2 850.000,E3 0.000,E4 0.000,E5 0.000,E6 0.000}
PTP {X 498.133,Y -27.054,Z 10.500,A -79.665,B -0.000,C -0.000,E1 0.000,E2 850.000,E3 0.000,E4 0.000,E5 0.000,E6 0.000}
PTP {X 498.133,Y -27.054,Z 0.273,A -79.665,B -0.000,C -0.000,E1 0.000,E2 850.000,E3 0.000,E4 0.000,E5 0.000,E6 0.000}
LIN {X 498.133,Y -27.054,Z -2.727,A -79.665,B -0.000,C -0.000,E1 0.000,E2 850.000,E3 0.000,E4 0.000,E5 0.000,E6 0.000}
LIN {X 488.791,Y -8.555,Z -2.727,A -79.665,B -0.000,C -0.000,E1 0.000,E2 850.000,E3 0.000,E4 0.000,E5 0.000,E6 0.000}
LIN {X 504.634,Y -6.320,Z -2.727,A -79.665,B -0.000,C -0.000,E1 0.000,E2 850.000,E3 0.000,E4 0.000,E5 0.000,E6 0.000}
LIN {X 507.293,Y -5.835,Z -2.727,A -79.665,B -0.000,C -0.000,E1 0.000,E2 850.000,E3 0.000,E4 0.000,E5 0.000,E6 0.000}
LIN {X 509.905,Y -5.138,Z -2.727,A -75.054,B -0.000,C 0.000,E1 0.000,E2 850.000,E3 0.000,E4 0.000,E5 0.000,E6 0.000}
LIN {X 512.452,Y -4.233,Z -2.727,A -70.444,B -0.000,C -0.000,E1 0.000,E2 850.000,E3 0.000,E4 0.000,E5 0.000,E6 0.000}
LIN {X 514.918,Y -3.126,Z -2.727,A -65.833,B -0.000,C 0.000,E1 0.000,E2 850.000,E3 0.000,E4 0.000,E5 0.000,E6 0.000}
LIN {X 517.287,Y -1.825,Z -2.727,A -61.223,B -0.000,C 0.000,E1 0.000,E2 850.000,E3 0.000,E4 0.000,E5 0.000,E6 0.000}
LIN {X 518.813,Y -1.017,Z -2.727,A -62.098,B -0.000,C 0.000,E1 0.000,E2 850.000,E3 0.000,E4 0.000,E5 0.000,E6 0.000}
LIN {X 520.416,Y -0.378,Z -2.727,A -68.283,B -0.000,C -0.000,E1 0.000,E2 850.000,E3 0.000,E4 0.000,E5 0.000,E6 0.000}
LIN {X 522.080,Y 0.084,Z -2.727,A -74.467,B -0.000,C 0.000,E1 0.000,E2 850.000,E3 0.000,E4 0.000,E5 0.000,E6 0.000}
LIN {X 523.783,Y 0.364,Z -2.727,A -80.652,B -0.000,C 0.000,E1 0.000,E2 850.000,E3 0.000,E4 0.000,E5 0.000,E6 0.000}
LIN {X 525.507,Y 0.460,Z -2.727,A -86.837,B -0.000,C -0.000,E1 0.000,E2 850.000,E3 0.000,E4 0.000,E5 0.000,E6 0.000}
LIN {X 558.470,Y 0.459,Z -2.727,A -90.002,B -0.000,C 0.000,E1 0.000,E2 850.000,E3 0.000,E4 0.000,E5 0.000,E6 0.000}
LIN {X 560.196,Y 0.363,Z -2.727,A -93.169,B -0.000,C 0.000,E1 0.000,E2 850.000,E3 0.000,E4 0.000,E5 0.000,E6 0.000}
LIN {X 561.900,Y 0.082,Z -2.727,A -99.360,B -0.000,C -0.000,E1 0.000,E2 850.000,E3 0.000,E4 0.000,E5 0.000,E6 0.000}
LIN {X 563.565,Y -0.381,Z -2.727,A -105.551,B -0.000,C -0.000,E1 0.000,E2 850.000,E3 0.000,E4 0.000,E5 0.000,E6 0.000}
LIN {X 565.170,Y -1.021,Z -2.727,A -111.741,B -0.000,C 0.000,E1 0.000,E2 850.000,E3 0.000,E4 0.000,E5 0.000,E6 0.000}
LIN {X 566.697,Y -1.831,Z -2.727,A -117.932,B -0.000,C -0.000,E1 0.000,E2 850.000,E3 0.000,E4 0.000,E5 0.000,E6 0.000}
LIN {X 568.916,Y -3.058,Z -2.727,A -118.952,B -0.000,C -0.000,E1 0.000,E2 850.000,E3 0.000,E4 0.000,E5 0.000,E6 0.000}
LIN {X 571.221,Y -4.115,Z -2.727,A -114.626,B -0.000,C -0.000,E1 0.000,E2 850.000,E3 0.000,E4 0.000,E5 0.000,E6 0.000}
LIN {X 573.600,Y -4.995,Z -2.727,A -110.301,B -0.000,C 0.000,E1 0.000,E2 850.000,E3 0.000,E4 0.000,E5 0.000,E6 0.000}
LIN {X 576.038,Y -5.693,Z -2.727,A -105.975,B -0.000,C -0.000,E1 0.000,E2 850.000,E3 0.000,E4 0.000,E5 0.000,E6 0.000}
LIN {X 578.522,Y -6.205,Z -2.727,A -101.649,B -0.000,C 0.000,E1 0.000,E2 850.000,E3 0.000,E4 0.000,E5 0.000,E6 0.000}
LIN {X 579.486,Y -6.267,Z -2.727,A -93.703,B -0.000,C 0.000,E1 0.000,E2 850.000,E3 0.000,E4 0.000,E5 0.000,E6 0.000}
LIN {X 580.442,Y -6.136,Z -2.727,A -82.155,B -0.000,C 0.000,E1 0.000,E2 850.000,E3 0.000,E4 0.000,E5 0.000,E6 0.000}
LIN {X 581.353,Y -5.815,Z -2.727,A -70.608,B -0.000,C -0.000,E1 0.000,E2 850.000,E3 0.000,E4 0.000,E5 0.000,E6 0.000}
LIN {X 582.182,Y -5.318,Z -2.727,A -59.060,B -0.000,C 0.000,E1 0.000,E2 850.000,E3 0.000,E4 0.000,E5 0.000,E6 0.000}
LIN {X 582.894,Y -4.666,Z -2.727,A -47.513,B -0.000,C -0.000,E1 0.000,E2 850.000,E3 0.000,E4 0.000,E5 0.000,E6 0.000}
LIN {X 583.461,Y -3.884,Z -2.727,A -35.965,B -0.000,C -0.000,E1 0.000,E2 850.000,E3 0.000,E4 0.000,E5 0.000,E6 0.000}
LIN {X 583.860,Y -3.005,Z -2.727,A -24.418,B -0.000,C -0.000,E1 0.000,E2 850.000,E3 0.000,E4 0.000,E5 0.000,E6 0.000}
LIN {X 584.075,Y -2.064,Z -2.727,A -12.870,B -0.000,C 0.000,E1 0.000,E2 850.000,E3 0.000,E4 0.000,E5 0.000,E6 0.000}
LIN {X 584.098,Y -1.098,Z -2.727,A -1.323,B -0.000,C 0.000,E1 0.000,E2 850.000,E3 0.000,E4 0.000,E5 0.000,E6 0.000}
LIN {X 584.081,Y -0.821,Z -2.727,A 3.410,B -0.000,C -0.000,E1 0.000,E2 850.000,E3 0.000,E4 0.000,E5 0.000,E6 0.000}
LIN {X 584.068,Y -0.495,Z -2.727,A 2.363,B -0.000,C -0.000,E1 0.000,E2 850.000,E3 0.000,E4 0.000,E5 0.000,E6 0.000}
LIN {X 584.059,Y -0.126,Z -2.727,A 1.283,B -0.000,C -0.000,E1 0.000,E2 850.000,E3 0.000,E4 0.000,E5 0.000,E6 0.000}
LIN {X 584.059,Y 0.148,Z -2.727,A 0.001,B -0.000,C -0.000,E1 0.000,E2 850.000,E3 0.000,E4 0.000,E5 0.000,E6 0.000}
LIN {X 584.060,Y 0.355,Z -2.727,A -0.092,B -0.000,C 0.000,E1 0.000,E2 850.000,E3 0.000,E4 0.000,E5 0.000,E6 0.000}
LIN {X 584.060,Y 0.557,Z -2.727,A 0.041,B -0.000,C -0.000,E1 0.000,E2 850.000,E3 0.000,E4 0.000,E5 0.000,E6 0.000}
LIN {X 584.060,Y 0.789,Z -2.727,A 0.010,B -0.000,C -0.000,E1 0.000,E2 850.000,E3 0.000,E4 0.000,E5 0.000,E6 0.000}
LIN {X 584.060,Y 1.163,Z -2.727,A -0.029,B -0.000,C 0.000,E1 0.000,E2 850.000,E3 0.000,E4 0.000,E5 0.000,E6 0.000}
LIN {X 584.060,Y 1.745,Z -2.727,A 0.020,B -0.000,C -0.000,E1 0.000,E2 850.000,E3 0.000,E4 0.000,E5 0.000,E6 0.000}
LIN {X 584.060,Y 1.938,Z -2.727,A -0.015,B -0.000,C 0.000,E1 0.000,E2 850.000,E3 0.000,E4 0.000,E5 0.000,E6 0.000}
LIN {X 584.059,Y 2.400,Z -2.727,A 0.026,B -0.000,C -0.000,E1 0.000,E2 850.000,E3 0.000,E4 0.000,E5 0.000,E6 0.000}
LIN {X 584.059,Y 2.617,Z -2.727,A -0.013,B -0.000,C 0.000,E1 0.000,E2 850.000,E3 0.000,E4 0.000,E5 0.000,E6 0.000}
LIN {X 583.962,Y 3.865,Z -2.727,A 4.485,B -0.000,C -0.000,E1 0.000,E2 850.000,E3 0.000,E4 0.000,E5 0.000,E6 0.000}
LIN {X 583.670,Y 5.082,Z -2.727,A 13.457,B -0.000,C -0.000,E1 0.000,E2 850.000,E3 0.000,E4 0.000,E5 0.000,E6 0.000}
LIN {X 583.193,Y 6.239,Z -2.727,A 22.430,B -0.000,C -0.000,E1 0.000,E2 850.000,E3 0.000,E4 0.000,E5 0.000,E6 0.000}
LIN {X 582.541,Y 7.307,Z -2.727,A 31.403,B -0.000,C -0.000,E1 0.000,E2 850.000,E3 0.000,E4 0.000,E5 0.000,E6 0.000}
LIN {X 581.730,Y 8.261,Z -2.727,A 40.375,B -0.000,C -0.000,E1 0.000,E2 850.000,E3 0.000,E4 0.000,E5 0.000,E6 0.000}
LIN {X 580.780,Y 9.076,Z -2.727,A 49.348,B -0.000,C 0.000,E1 0.000,E2 850.000,E3 0.000,E4 0.000,E5 0.000,E6 0.000}
LIN {X 579.715,Y 9.733,Z -2.727,A 58.321,B -0.000,C 0.000,E1 0.000,E2 850.000,E3 0.000,E4 0.000,E5 0.000,E6 0.000}
LIN {X 578.561,Y 10.217,Z -2.727,A 67.293,B -0.000,C 0.000,E1 0.000,E2 850.000,E3 0.000,E4 0.000,E5 0.000,E6 0.000}
LIN {X 576.716,Y 10.941,Z -2.727,A 68.567,B -0.000,C 0.000,E1 0.000,E2 850.000,E3 0.000,E4 0.000,E5 0.000,E6 0.000}
LIN {X 574.965,Y 11.868,Z -2.727,A 62.112,B -0.000,C -0.000,E1 0.000,E2 850.000,E3 0.000,E4 0.000,E5 0.000,E6 0.000}
LIN {X 574.071,Y 12.445,Z -2.727,A 57.153,B -0.000,C 0.000,E1 0.000,E2 850.000,E3 0.000,E4 0.000,E5 0.000,E6 0.000}
LIN {X 573.213,Y 13.075,Z -2.727,A 53.687,B -0.000,C -0.000,E1 0.000,E2 850.000,E3 0.000,E4 0.000,E5 0.000,E6 0.000}
LIN {X 571.766,Y 14.081,Z -2.727,A 55.206,B -0.000,C 0.000,E1 0.000,E2 850.000,E3 0.000,E4 0.000,E5 0.000,E6 0.000}
LIN {X 570.217,Y 14.921,Z -2.727,A 61.519,B -0.000,C -0.000,E1 0.000,E2 850.000,E3 0.000,E4 0.000,E5 0.000,E6 0.000}
LIN {X 568.585,Y 15.586,Z -2.727,A 67.833,B -0.000,C 0.000,E1 0.000,E2 850.000,E3 0.000,E4 0.000,E5 0.000,E6 0.000}
LIN {X 566.890,Y 16.067,Z -2.727,A 74.146,B -0.000,C -0.000,E1 0.000,E2 850.000,E3 0.000,E4 0.000,E5 0.000,E6 0.000}
LIN {X 565.152,Y 16.359,Z -2.727,A 80.460,B -0.000,C 0.000,E1 0.000,E2 850.000,E3 0.000,E4 0.000,E5 0.000,E6 0.000}
LIN {X 563.393,Y 16.458,Z -2.727,A 86.773,B -0.000,C 0.000,E1 0.000,E2 850.000,E3 0.000,E4 0.000,E5 0.000,E6 0.000}
LIN {X 520.590,Y 16.460,Z -2.727,A 89.998,B -0.000,C 0.000,E1 0.000,E2 850.000,E3 0.000,E4 0.000,E5 0.000,E6 0.000}
LIN {X 518.832,Y 16.361,Z -2.727,A 93.220,B -0.000,C -0.000,E1 0.000,E2 850.000,E3 0.000,E4 0.000,E5 0.000,E6 0.000}
LIN {X 517.096,Y 16.069,Z -2.727,A 99.528,B -0.000,C -0.000,E1 0.000,E2 850.000,E3 0.000,E4 0.000,E5 0.000,E6 0.000}
LIN {X 515.402,Y 15.589,Z -2.727,A 105.835,B -0.000,C 0.000,E1 0.000,E2 850.000,E3 0.000,E4 0.000,E5 0.000,E6 0.000}
LIN {X 513.772,Y 14.925,Z -2.727,A 112.143,B -0.000,C -0.000,E1 0.000,E2 850.000,E3 0.000,E4 0.000,E5 0.000,E6 0.000}
LIN {X 512.224,Y 14.087,Z -2.727,A 118.451,B -0.000,C 0.000,E1 0.000,E2 850.000,E3 0.000,E4 0.000,E5 0.000,E6 0.000}
LIN {X 510.777,Y 13.083,Z -2.727,A 124.758,B -0.000,C -0.000,E1 0.000,E2 850.000,E3 0.000,E4 0.000,E5 0.000,E6 0.000}
LIN {X 509.920,Y 12.454,Z -2.727,A 126.275,B -0.000,C 0.000,E1 0.000,E2 850.000,E3 0.000,E4 0.000,E5 0.000,E6 0.000}
LIN {X 509.027,Y 11.878,Z -2.727,A 122.813,B -0.000,C -0.000,E1 0.000,E2 850.000,E3 0.000,E4 0.000,E5 0.000,E6 0.000}
LIN {X 507.477,Y 11.046,Z -2.727,A 118.219,B -0.000,C 0.000,E1 0.000,E2 850.000,E3 0.000,E4 0.000,E5 0.000,E6 0.000}
LIN {X 505.853,Y 10.374,Z -2.727,A 112.492,B -0.000,C -0.000,E1 0.000,E2 850.000,E3 0.000,E4 0.000,E5 0.000,E6 0.000}
LIN {X 504.169,Y 9.866,Z -2.727,A 106.765,B -0.000,C 0.000,E1 0.000,E2 850.000,E3 0.000,E4 0.000,E5 0.000,E6 0.000}
LIN {X 502.443,Y 9.530,Z -2.727,A 101.038,B -0.000,C -0.000,E1 0.000,E2 850.000,E3 0.000,E4 0.000,E5 0.000,E6 0.000}
LIN {X 501.372,Y 9.449,Z -2.727,A 94.321,B -0.000,C -0.000,E1 0.000,E2 850.000,E3 0.000,E4 0.000,E5 0.000,E6 0.000}
LIN {X 500.301,Y 9.512,Z -2.727,A 86.626,B -0.000,C 0.000,E1 0.000,E2 850.000,E3 0.000,E4 0.000,E5 0.000,E6 0.000}
LIN {X 499.247,Y 9.718,Z -2.727,A 78.932,B -0.000,C 0.000,E1 0.000,E2 850.000,E3 0.000,E4 0.000,E5 0.000,E6 0.000}
LIN {X 498.231,Y 10.063,Z -2.727,A 71.237,B -0.000,C 0.000,E1 0.000,E2 850.000,E3 0.000,E4 0.000,E5 0.000,E6 0.000}
LIN {X 496.987,Y 10.582,Z -2.727,A 67.382,B -0.000,C 0.000,E1 0.000,E2 850.000,E3 0.000,E4 0.000,E5 0.000,E6 0.000}
LIN {X 495.819,Y 11.190,Z -2.727,A 62.463,B -0.000,C -0.000,E1 0.000,E2 850.000,E3 0.000,E4 0.000,E5 0.000,E6 0.000}
LIN {X 494.773,Y 11.990,Z -2.727,A 52.627,B -0.000,C -0.000,E1 0.000,E2 850.000,E3 0.000,E4 0.000,E5 0.000,E6 0.000}
LIN {X 493.878,Y 12.956,Z -2.727,A 42.791,B -0.000,C 0.000,E1 0.000,E2 850.000,E3 0.000,E4 0.000,E5 0.000,E6 0.000}
LIN {X 493.162,Y 14.061,Z -2.727,A 32.955,B -0.000,C -0.000,E1 0.000,E2 850.000,E3 0.000,E4 0.000,E5 0.000,E6 0.000}
LIN {X 492.645,Y 15.272,Z -2.727,A 23.118,B -0.000,C -0.000,E1 0.000,E2 850.000,E3 0.000,E4 0.000,E5 0.000,E6 0.000}
LIN {X 492.342,Y 16.554,Z -2.727,A 13.282,B -0.000,C -0.000,E1 0.000,E2 850.000,E3 0.000,E4 0.000,E5 0.000,E6 0.000}
LIN {X 492.263,Y 17.868,Z -2.727,A 3.446,B -0.000,C -0.000,E1 0.000,E2 850.000,E3 0.000,E4 0.000,E5 0.000,E6 0.000}
LIN {X 492.410,Y 19.177,Z -2.727,A -6.390,B -0.000,C -0.000,E1 0.000,E2 850.000,E3 0.000,E4 0.000,E5 0.000,E6 0.000}
LIN {X 492.778,Y 20.441,Z -2.727,A -16.227,B -0.000,C -0.000,E1 0.000,E2 850.000,E3 0.000,E4 0.000,E5 0.000,E6 0.000}
LIN {X 493.356,Y 21.624,Z -2.727,A -26.063,B -0.000,C -0.000,E1 0.000,E2 850.000,E3 0.000,E4 0.000,E5 0.000,E6 0.000}
LIN {X 494.128,Y 22.691,Z -2.727,A -35.899,B -0.000,C -0.000,E1 0.000,E2 850.000,E3 0.000,E4 0.000,E5 0.000,E6 0.000}
LIN {X 495.071,Y 23.610,Z -2.727,A -45.735,B -0.000,C 0.000,E1 0.000,E2 850.000,E3 0.000,E4 0.000,E5 0.000,E6 0.000}
LIN {X 496.158,Y 24.355,Z -2.727,A -55.572,B -0.000,C -0.000,E1 0.000,E2 850.000,E3 0.000,E4 0.000,E5 0.000,E6 0.000}
LIN {X 497.355,Y 24.903,Z -2.727,A -65.408,B -0.000,C 0.000,E1 0.000,E2 850.000,E3 0.000,E4 0.000,E5 0.000,E6 0.000}
LIN {X 498.628,Y 25.238,Z -2.727,A -75.244,B -0.000,C 0.000,E1 0.000,E2 850.000,E3 0.000,E4 0.000,E5 0.000,E6 0.000}
LIN {X 499.940,Y 25.351,Z -2.727,A -85.080,B -0.000,C 0.000,E1 0.000,E2 850.000,E3 0.000,E4 0.000,E5 0.000,E6 0.000}
LIN {X 500.461,Y 25.438,Z -2.727,A -80.497,B -0.000,C -0.000,E1 0.000,E2 850.000,E3 0.000,E4 0.000,E5 0.000,E6 0.000}
LIN {X 500.926,Y 25.690,Z -2.727,A -61.495,B -0.000,C 0.000,E1 0.000,E2 850.000,E3 0.000,E4 0.000,E5 0.000,E6 0.000}
LIN {X 501.256,Y 26.041,Z -2.727,A -43.328,B -0.000,C -0.000,E1 0.000,E2 850.000,E3 0.000,E4 0.000,E5 0.000,E6 0.000}
LIN {X 501.468,Y 26.474,Z -2.727,A -25.996,B -0.000,C -0.000,E1 0.000,E2 850.000,E3 0.000,E4 0.000,E5 0.000,E6 0.000}
LIN {X 501.540,Y 26.951,Z -2.727,A -8.665,B -0.000,C -0.000,E1 0.000,E2 850.000,E3 0.000,E4 0.000,E5 0.000,E6 0.000}
LIN {X 501.540,Y 36.451,Z -2.727,A 0.001,B -0.000,C -0.000,E1 0.000,E2 850.000,E3 0.000,E4 0.000,E5 0.000,E6 0.000}
LIN {X 501.540,Y 45.238,Z -2.727,A 0.002,B -0.000,C -0.000,E1 0.000,E2 850.000,E3 0.000,E4 0.000,E5 0.000,E6 0.000}
LIN {X 501.650,Y 46.063,Z -2.727,A -7.619,B -0.000,C -0.000,E1 0.000,E2 850.000,E3 0.000,E4 0.000,E5 0.000,E6 0.000}
LIN {X 501.970,Y 46.832,Z -2.727,A -22.571,B -0.000,C 0.000,E1 0.000,E2 850.000,E3 0.000,E4 0.000,E5 0.000,E6 0.000}
LIN {X 502.477,Y 47.493,Z -2.727,A -37.523,B -0.000,C -0.000,E1 0.000,E2 850.000,E3 0.000,E4 0.000,E5 0.000,E6 0.000}
LIN {X 503.137,Y 48.000,Z -2.727,A -52.475,B -0.000,C 0.000,E1 0.000,E2 850.000,E3 0.000,E4 0.000,E5 0.000,E6 0.000}
LIN {X 503.906,Y 48.320,Z -2.727,A -67.427,B -0.000,C -0.000,E1 0.000,E2 850.000,E3 0.000,E4 0.000,E5 0.000,E6 0.000}
LIN {X 504.732,Y 48.430,Z -2.727,A -82.379,B -0.000,C 0.000,E1 0.000,E2 850.000,E3 0.000,E4 0.000,E5 0.000,E6 0.000}
LIN {X 542.937,Y 48.430,Z -2.727,A -90.000,B -0.000,C -0.000,E1 0.000,E2 850.000,E3 0.000,E4 0.000,E5 0.000,E6 0.000}
LIN {X 543.721,Y 48.330,Z -2.727,A -97.243,B -0.000,C -0.000,E1 0.000,E2 850.000,E3 0.000,E4 0.000,E5 0.000,E6 0.000}
LIN {X 544.457,Y 48.041,Z -2.727,A -111.440,B -0.000,C 0.000,E1 0.000,E2 850.000,E3 0.000,E4 0.000,E5 0.000,E6 0.000}
LIN {X 545.100,Y 47.580,Z -2.727,A -125.637,B -0.000,C -0.000,E1 0.000,E2 850.000,E3 0.000,E4 0.000,E5 0.000,E6 0.000}
LIN {X 545.610,Y 46.976,Z -2.727,A -139.833,B -0.000,C -0.000,E1 0.000,E2 850.000,E3 0.000,E4 0.000,E5 0.000,E6 0.000}
LIN {X 545.956,Y 46.266,Z -2.727,A -154.019,B -0.000,C 0.000,E1 0.000,E2 850.000,E3 0.000,E4 0.000,E5 0.000,E6 0.000}
LIN {X 546.118,Y 45.493,Z -2.727,A -168.194,B -0.000,C -0.000,E1 0.000,E2 850.000,E3 0.000,E4 0.000,E5 0.000,E6 0.000}
LIN {X 546.085,Y 44.704,Z -2.727,A 177.632,B -0.000,C 0.000,E1 0.000,E2 850.000,E3 0.000,E4 0.000,E5 0.000,E6 0.000}
LIN {X 545.860,Y 43.947,Z -2.727,A 163.457,B -0.000,C -0.000,E1 0.000,E2 850.000,E3 0.000,E4 0.000,E5 0.000,E6 0.000}
LIN {X 545.457,Y 43.268,Z -2.727,A 149.282,B -0.000,C -0.000,E1 0.000,E2 850.000,E3 0.000,E4 0.000,E5 0.000,E6 0.000}
LIN {X 544.899,Y 42.709,Z -2.727,A 135.107,B -0.000,C -0.000,E1 0.000,E2 850.000,E3 0.000,E4 0.000,E5 0.000,E6 0.000}
LIN {X 544.222,Y 42.303,Z -2.727,A 120.932,B -0.000,C 0.000,E1 0.000,E2 850.000,E3 0.000,E4 0.000,E5 0.000,E6 0.000}
LIN {X 543.466,Y 42.075,Z -2.727,A 106.758,B -0.000,C 0.000,E1 0.000,E2 850.000,E3 0.000,E4 0.000,E5 0.000,E6 0.000}
LIN {X 510.268,Y 36.505,Z -2.727,A 99.525,B -0.000,C -0.000,E1 0.000,E2 850.000,E3 0.000,E4 0.000,E5 0.000,E6 0.000}
LIN {X 509.741,Y 36.318,Z -2.727,A 109.584,B -0.000,C -0.000,E1 0.000,E2 850.000,E3 0.000,E4 0.000,E5 0.000,E6 0.000}
LIN {X 509.311,Y 35.961,Z -2.727,A 129.703,B -0.000,C -0.000,E1 0.000,E2 850.000,E3 0.000,E4 0.000,E5 0.000,E6 0.000}
LIN {X 509.030,Y 35.478,Z -2.727,A 149.822,B -0.000,C -0.000,E1 0.000,E2 850.000,E3 0.000,E4 0.000,E5 0.000,E6 0.000}
LIN {X 508.933,Y 34.927,Z -2.727,A 169.941,B -0.000,C 0.000,E1 0.000,E2 850.000,E3 0.000,E4 0.000,E5 0.000,E6 0.000}
LIN {X 508.933,Y 34.060,Z -2.727,A 180.000,B -0.000,C 0.000,E1 0.000,E2 850.000,E3 0.000,E4 0.000,E5 0.000,E6 0.000}
LIN {X 509.011,Y 33.566,Z -2.727,A -171.000,B -0.000,C 0.000,E1 0.000,E2 850.000,E3 0.000,E4 0.000,E5 0.000,E6 0.000}
LIN {X 509.238,Y 33.120,Z -2.727,A -153.001,B -0.000,C 0.000,E1 0.000,E2 850.000,E3 0.000,E4 0.000,E5 0.000,E6 0.000}
LIN {X 509.592,Y 32.766,Z -2.727,A -135.001,B -0.000,C 0.000,E1 0.000,E2 850.000,E3 0.000,E4 0.000,E5 0.000,E6 0.000}
LIN {X 510.038,Y 32.538,Z -2.727,A -117.001,B -0.000,C -0.000,E1 0.000,E2 850.000,E3 0.000,E4 0.000,E5 0.000,E6 0.000}
LIN {X 510.533,Y 32.460,Z -2.727,A -99.002,B -0.000,C -0.000,E1 0.000,E2 850.000,E3 0.000,E4 0.000,E5 0.000,E6 0.000}
LIN {X 579.268,Y 32.458,Z -2.727,A -90.002,B -0.000,C 0.000,E1 0.000,E2 850.000,E3 0.000,E4 0.000,E5 0.000,E6 0.000}
LIN {X 580.092,Y 32.348,Z -2.727,A -97.613,B -0.000,C -0.000,E1 0.000,E2 850.000,E3 0.000,E4 0.000,E5 0.000,E6 0.000}
LIN {X 580.860,Y 32.029,Z -2.727,A -112.544,B -0.000,C 0.000,E1 0.000,E2 850.000,E3 0.000,E4 0.000,E5 0.000,E6 0.000}
LIN {X 581.520,Y 31.523,Z -2.727,A -127.476,B -0.000,C -0.000,E1 0.000,E2 850.000,E3 0.000,E4 0.000,E5 0.000,E6 0.000}
LIN {X 582.027,Y 30.864,Z -2.727,A -142.407,B -0.000,C 0.000,E1 0.000,E2 850.000,E3 0.000,E4 0.000,E5 0.000,E6 0.000}
LIN {X 582.348,Y 30.097,Z -2.727,A -157.339,B -0.000,C -0.000,E1 0.000,E2 850.000,E3 0.000,E4 0.000,E5 0.000,E6 0.000}
LIN {X 582.431,Y 29.685,Z -2.727,A -168.567,B -0.000,C -0.000,E1 0.000,E2 850.000,E3 0.000,E4 0.000,E5 0.000,E6 0.000}
LIN {X 582.460,Y 29.266,Z -2.727,A -176.092,B -0.000,C -0.000,E1 0.000,E2 850.000,E3 0.000,E4 0.000,E5 0.000,E6 0.000}
LIN {X 582.460,Y 26.935,Z -2.727,A -180.000,B -0.000,C -0.000,E1 0.000,E2 850.000,E3 0.000,E4 0.000,E5 0.000,E6 0.000}
LIN {X 582.532,Y 26.459,Z -2.727,A -171.341,B -0.000,C 0.000,E1 0.000,E2 850.000,E3 0.000,E4 0.000,E5 0.000,E6 0.000}
LIN {X 582.743,Y 26.026,Z -2.727,A -154.023,B -0.000,C 0.000,E1 0.000,E2 850.000,E3 0.000,E4 0.000,E5 0.000,E6 0.000}
LIN {X 583.074,Y 25.675,Z -2.727,A -136.704,B -0.000,C 0.000,E1 0.000,E2 850.000,E3 0.000,E4 0.000,E5 0.000,E6 0.000}
LIN {X 583.538,Y 25.423,Z -2.727,A -118.534,B -0.000,C -0.000,E1 0.000,E2 850.000,E3 0.000,E4 0.000,E5 0.000,E6 0.000}
LIN {X 584.060,Y 25.335,Z -2.727,A -99.511,B -0.000,C 0.000,E1 0.000,E2 850.000,E3 0.000,E4 0.000,E5 0.000,E6 0.000}
LIN {X 600.060,Y 25.335,Z -2.727,A -179.998,B -0.000,C -0.000,E1 0.000,E2 850.000,E3 0.000,E4 0.000,E5 0.000,E6 0.000}
LIN {X 600.060,Y 25.335,Z 0.273,A -179.998,B -0.000,C -0.000,E1 0.000,E2 850.000,E3 0.000,E4 0.000,E5 0.000,E6 0.000}
PTP {X 600.060,Y 25.335,Z 10.500,A -179.998,B -0.000,C -0.000,E1 0.000,E2 850.000,E3 0.000,E4 0.000,E5 0.000,E6 0.000}
PTP {X 582.460,Y 43.274,Z 10.500,A -179.998,B -0.000,C -0.000,E1 0.000,E2 850.000,E3 0.000,E4 0.000,E5 0.000,E6 0.000}
PTP {X 582.460,Y 43.274,Z 0.273,A -179.998,B -0.000,C -0.000,E1 0.000,E2 850.000,E3 0.000,E4 0.000,E5 0.000,E6 0.000}
LIN {X 582.460,Y 43.274,Z -2.727,A -179.998,B -0.000,C -0.000,E1 0.000,E2 850.000,E3 0.000,E4 0.000,E5 0.000,E6 0.000}
LIN {X 598.460,Y 43.275,Z -2.727,A -179.998,B -0.000,C -0.000,E1 0.000,E2 850.000,E3 0.000,E4 0.000,E5 0.000,E6 0.000}
LIN {X 598.460,Y 41.311,Z -2.727,A -179.998,B -0.000,C -0.000,E1 0.000,E2 850.000,E3 0.000,E4 0.000,E5 0.000,E6 0.000}
LIN {X 598.354,Y 40.500,Z -2.727,A 172.516,B -0.000,C -0.000,E1 0.000,E2 850.000,E3 0.000,E4 0.000,E5 0.000,E6 0.000}
LIN {X 598.045,Y 39.743,Z -2.727,A 157.837,B -0.000,C 0.000,E1 0.000,E2 850.000,E3 0.000,E4 0.000,E5 0.000,E6 0.000}
LIN {X 597.555,Y 39.089,Z -2.727,A 143.158,B -0.000,C -0.000,E1 0.000,E2 850.000,E3 0.000,E4 0.000,E5 0.000,E6 0.000}
LIN {X 596.915,Y 38.580,Z -2.727,A 128.478,B -0.000,C 0.000,E1 0.000,E2 850.000,E3 0.000,E4 0.000,E5 0.000,E6 0.000}
LIN {X 596.167,Y 38.250,Z -2.727,A 113.799,B -0.000,C -0.000,E1 0.000,E2 850.000,E3 0.000,E4 0.000,E5 0.000,E6 0.000}
LIN {X 595.360,Y 38.120,Z -2.727,A 99.119,B -0.000,C 0.000,E1 0.000,E2 850.000,E3 0.000,E4 0.000,E5 0.000,E6 0.000}
LIN {X 594.546,Y 38.200,Z -2.727,A 84.440,B -0.000,C -0.000,E1 0.000,E2 850.000,E3 0.000,E4 0.000,E5 0.000,E6 0.000}
LIN {X 593.779,Y 38.482,Z -2.727,A 69.760,B -0.000,C 0.000,E1 0.000,E2 850.000,E3 0.000,E4 0.000,E5 0.000,E6 0.000}
LIN {X 593.108,Y 38.950,Z -2.727,A 55.081,B -0.000,C -0.000,E1 0.000,E2 850.000,E3 0.000,E4 0.000,E5 0.000,E6 0.000}
LIN {X 592.578,Y 39.573,Z -2.727,A 40.401,B -0.000,C -0.000,E1 0.000,E2 850.000,E3 0.000,E4 0.000,E5 0.000,E6 0.000}
LIN {X 592.314,Y 39.982,Z -2.727,A 32.916,B -0.000,C -0.000,E1 0.000,E2 850.000,E3 0.000,E4 0.000,E5 0.000,E6 0.000}
LIN {X 592.271,Y 40.045,Z -2.727,A 34.284,B -0.000,C -0.000,E1 0.000,E2 850.000,E3 0.000,E4 0.000,E5 0.000,E6 0.000}
LIN {X 592.225,Y 40.106,Z -2.727,A 37.020,B -0.000,C 0.000,E1 0.000,E2 850.000,E3 0.000,E4 0.000,E5 0.000,E6 0.000}
LIN {X 592.055,Y 40.344,Z -2.727,A 35.514,B -0.000,C 0.000,E1 0.000,E2 850.000,E3 0.000,E4 0.000,E5 0.000,E6 0.000}
LIN {X 591.907,Y 40.597,Z -2.727,A 30.269,B -0.000,C 0.000,E1 0.000,E2 850.000,E3 0.000,E4 0.000,E5 0.000,E6 0.000}
LIN {X 591.862,Y 40.678,Z -2.727,A 29.051,B -0.000,C 0.000,E1 0.000,E2 850.000,E3 0.000,E4 0.000,E5 0.000,E6 0.000}
LIN {X 591.813,Y 40.756,Z -2.727,A 32.363,B -0.000,C -0.000,E1 0.000,E2 850.000,E3 0.000,E4 0.000,E5 0.000,E6 0.000}
LIN {X 590.965,Y 42.012,Z -2.727,A 34.018,B -0.000,C -0.000,E1 0.000,E2 850.000,E3 0.000,E4 0.000,E5 0.000,E6 0.000}
LIN {X 590.855,Y 42.157,Z -2.727,A 37.289,B -0.000,C 0.000,E1 0.000,E2 850.000,E3 0.000,E4 0.000,E5 0.000,E6 0.000}
LIN {X 590.728,Y 42.288,Z -2.727,A 43.829,B -0.000,C 0.000,E1 0.000,E2 850.000,E3 0.000,E4 0.000,E5 0.000,E6 0.000}
LIN {X 590.505,Y 42.496,Z -2.727,A 47.099,B -0.000,C -0.000,E1 0.000,E2 850.000,E3 0.000,E4 0.000,E5 0.000,E6 0.000}
LIN {X 590.006,Y 43.091,Z -2.727,A 39.982,B -0.000,C -0.000,E1 0.000,E2 850.000,E3 0.000,E4 0.000,E5 0.000,E6 0.000}
LIN {X 589.665,Y 43.789,Z -2.727,A 26.038,B -0.000,C 0.000,E1 0.000,E2 850.000,E3 0.000,E4 0.000,E5 0.000,E6 0.000}
LIN {X 589.639,Y 43.860,Z -2.727,A 20.167,B -0.000,C -0.000,E1 0.000,E2 850.000,E3 0.000,E4 0.000,E5 0.000,E6 0.000}
LIN {X 589.609,Y 43.930,Z -2.727,A 22.871,B -0.000,C -0.000,E1 0.000,E2 850.000,E3 0.000,E4 0.000,E5 0.000,E6 0.000}
LIN {X 589.379,Y 44.688,Z -2.727,A 16.858,B -0.000,C 0.000,E1 0.000,E2 850.000,E3 0.000,E4 0.000,E5 0.000,E6 0.000}
LIN {X 589.343,Y 45.480,Z -2.727,A 2.630,B -0.000,C -0.000,E1 0.000,E2 850.000,E3 0.000,E4 0.000,E5 0.000,E6 0.000}
LIN {X 589.502,Y 46.257,Z -2.727,A -11.599,B -0.000,C 0.000,E1 0.000,E2 850.000,E3 0.000,E4 0.000,E5 0.000,E6 0.000}
LIN {X 589.848,Y 46.970,Z -2.727,A -25.827,B -0.000,C -0.000,E1 0.000,E2 850.000,E3 0.000,E4 0.000,E5 0.000,E6 0.000}
LIN {X 590.358,Y 47.577,Z -2.727,A -40.055,B -0.000,C 0.000,E1 0.000,E2 850.000,E3 0.000,E4 0.000,E5 0.000,E6 0.000}
LIN {X 591.001,Y 48.040,Z -2.727,A -54.284,B -0.000,C 0.000,E1 0.000,E2 850.000,E3 0.000,E4 0.000,E5 0.000,E6 0.000}
LIN {X 591.739,Y 48.330,Z -2.727,A -68.512,B -0.000,C -0.000,E1 0.000,E2 850.000,E3 0.000,E4 0.000,E5 0.000,E6 0.000}
LIN {X 592.525,Y 48.430,Z -2.727,A -82.741,B -0.000,C 0.000,E1 0.000,E2 850.000,E3 0.000,E4 0.000,E5 0.000,E6 0.000}
LIN {X 595.268,Y 48.430,Z -2.727,A -90.000,B -0.000,C -0.000,E1 0.000,E2 850.000,E3 0.000,E4 0.000,E5 0.000,E6 0.000}
LIN {X 596.094,Y 48.320,Z -2.727,A -97.621,B -0.000,C -0.000,E1 0.000,E2 850.000,E3 0.000,E4 0.000,E5 0.000,E6 0.000}
LIN {X 596.863,Y 48.000,Z -2.727,A -112.572,B -0.000,C 0.000,E1 0.000,E2 850.000,E3 0.000,E4 0.000,E5 0.000,E6 0.000}
LIN {X 597.523,Y 47.493,Z -2.727,A -127.524,B -0.000,C -0.000,E1 0.000,E2 850.000,E3 0.000,E4 0.000,E5 0.000,E6 0.000}
LIN {X 598.030,Y 46.832,Z -2.727,A -142.475,B -0.000,C 0.000,E1 0.000,E2 850.000,E3 0.000,E4 0.000,E5 0.000,E6 0.000}
LIN {X 598.350,Y 46.064,Z -2.727,A -157.426,B -0.000,C -0.000,E1 0.000,E2 850.000,E3 0.000,E4 0.000,E5 0.000,E6 0.000}
LIN {X 598.460,Y 45.238,Z -2.727,A -172.378,B -0.000,C 0.000,E1 0.000,E2 850.000,E3 0.000,E4 0.000,E5 0.000,E6 0.000}
LIN {X 598.460,Y 43.275,Z -2.727,A -179.998,B -0.000,C -0.000,E1 0.000,E2 850.000,E3 0.000,E4 0.000,E5 0.000,E6 0.000}
LIN {X 582.460,Y 43.274,Z -2.727,A 0.001,B -0.000,C -0.000,E1 0.000,E2 850.000,E3 0.000,E4 0.000,E5 0.000,E6 0.000}
LIN {X 582.460,Y 43.274,Z 0.273,A 0.001,B -0.000,C -0.000,E1 0.000,E2 850.000,E3 0.000,E4 0.000,E5 0.000,E6 0.000}
PTP {X 582.460,Y 43.274,Z 10.500,A 0.001,B -0.000,C -0.000,E1 0.000,E2 850.000,E3 0.000,E4 0.000,E5 0.000,E6 0.000}
PTP {X 515.941,Y 12.706,Z 10.500,A 0.001,B -0.000,C -0.000,E1 0.000,E2 850.000,E3 0.000,E4 0.000,E5 0.000,E6 0.000}
PTP {X 515.941,Y 12.706,Z 0.273,A 0.001,B -0.000,C -0.000,E1 0.000,E2 850.000,E3 0.000,E4 0.000,E5 0.000,E6 0.000}
LIN {X 515.941,Y 12.706,Z -2.727,A 0.001,B -0.000,C -0.000,E1 0.000,E2 850.000,E3 0.000,E4 0.000,E5 0.000,E6 0.000}
LIN {X 499.941,Y 10.951,Z -2.727,A 0.001,B -0.000,C -0.000,E1 0.000,E2 850.000,E3 0.000,E4 0.000,E5 0.000,E6 0.000}
LIN {X 499.940,Y 26.951,Z -2.727,A 0.001,B -0.000,C -0.000,E1 0.000,E2 850.000,E3 0.000,E4 0.000,E5 0.000,E6 0.000}
LIN {X 499.940,Y 36.451,Z -2.727,A 0.001,B -0.000,C -0.000,E1 0.000,E2 850.000,E3 0.000,E4 0.000,E5 0.000,E6 0.000}
LIN {X 499.940,Y 49.970,Z -2.727,A 0.002,B -0.000,C -0.000,E1 0.000,E2 850.000,E3 0.000,E4 0.000,E5 0.000,E6 0.000}
LIN {X 499.957,Y 50.012,Z -2.727,A -22.498,B -0.000,C 0.000,E1 0.000,E2 850.000,E3 0.000,E4 0.000,E5 0.000,E6 0.000}
LIN {X 500.000,Y 50.030,Z -2.727,A -67.500,B -0.000,C -0.000,E1 0.000,E2 850.000,E3 0.000,E4 0.000,E5 0.000,E6 0.000}
LIN {X 600.000,Y 50.030,Z -2.727,A -90.000,B -0.000,C -0.000,E1 0.000,E2 850.000,E3 0.000,E4 0.000,E5 0.000,E6 0.000}
LIN {X 600.043,Y 50.012,Z -2.727,A -112.499,B -0.000,C 0.000,E1 0.000,E2 850.000,E3 0.000,E4 0.000,E5 0.000,E6 0.000}
LIN {X 600.060,Y 49.970,Z -2.727,A -157.499,B -0.000,C -0.000,E1 0.000,E2 850.000,E3 0.000,E4 0.000,E5 0.000,E6 0.000}
LIN {X 600.060,Y 34.491,Z -2.727,A 180.000,B -0.000,C 0.000,E1 0.000,E2 850.000,E3 0.000,E4 0.000,E5 0.000,E6 0.000}
LIN {X 599.984,Y 33.910,Z -2.727,A 172.512,B -0.000,C -0.000,E1 0.000,E2 850.000,E3 0.000,E4 0.000,E5 0.000,E6 0.000}
LIN {X 599.961,Y 33.871,Z -2.727,A 150.242,B -0.000,C -0.000,E1 0.000,E2 850.000,E3 0.000,E4 0.000,E5 0.000,E6 0.000}
LIN {X 599.917,Y 33.858,Z -2.727,A 105.699,B -0.000,C 0.000,E1 0.000,E2 850.000,E3 0.000,E4 0.000,E5 0.000,E6 0.000}
LIN {X 597.471,Y 34.140,Z -2.727,A 83.427,B -0.000,C -0.000,E1 0.000,E2 850.000,E3 0.000,E4 0.000,E5 0.000,E6 0.000}
LIN {X 595.874,Y 34.498,Z -2.727,A 77.355,B -0.000,C 0.000,E1 0.000,E2 850.000,E3 0.000,E4 0.000,E5 0.000,E6 0.000}
LIN {X 594.318,Y 35.005,Z -2.727,A 71.955,B -0.000,C -0.000,E1 0.000,E2 850.000,E3 0.000,E4 0.000,E5 0.000,E6 0.000}
LIN {X 592.816,Y 35.657,Z -2.727,A 66.556,B -0.000,C 0.000,E1 0.000,E2 850.000,E3 0.000,E4 0.000,E5 0.000,E6 0.000}
LIN {X 591.382,Y 36.446,Z -2.727,A 61.156,B -0.000,C -0.000,E1 0.000,E2 850.000,E3 0.000,E4 0.000,E5 0.000,E6 0.000}
LIN {X 590.029,Y 37.367,Z -2.727,A 55.756,B -0.000,C 0.000,E1 0.000,E2 850.000,E3 0.000,E4 0.000,E5 0.000,E6 0.000}
LIN {X 590.005,Y 37.415,Z -2.727,A 26.897,B -0.000,C 0.000,E1 0.000,E2 850.000,E3 0.000,E4 0.000,E5 0.000,E6 0.000}
LIN {X 590.028,Y 37.462,Z -2.727,A -25.421,B -0.000,C -0.000,E1 0.000,E2 850.000,E3 0.000,E4 0.000,E5 0.000,E6 0.000}
LIN {X 591.357,Y 38.516,Z -2.727,A -51.579,B -0.000,C 0.000,E1 0.000,E2 850.000,E3 0.000,E4 0.000,E5 0.000,E6 0.000}
LIN {X 590.971,Y 39.112,Z -2.727,A 32.916,B -0.000,C -0.000,E1 0.000,E2 850.000,E3 0.000,E4 0.000,E5 0.000,E6 0.000}
LIN {X 590.599,Y 39.153,Z -2.727,A 83.793,B -0.000,C -0.000,E1 0.000,E2 850.000,E3 0.000,E4 0.000,E5 0.000,E6 0.000}
LIN {X 590.563,Y 39.170,Z -2.727,A 64.141,B -0.000,C -0.000,E1 0.000,E2 850.000,E3 0.000,E4 0.000,E5 0.000,E6 0.000}
LIN {X 590.546,Y 39.207,Z -2.727,A 24.836,B -0.000,C 0.000,E1 0.000,E2 850.000,E3 0.000,E4 0.000,E5 0.000,E6 0.000}
LIN {X 590.487,Y 39.861,Z -2.727,A 5.183,B -0.000,C 0.000,E1 0.000,E2 850.000,E3 0.000,E4 0.000,E5 0.000,E6 0.000}
LIN {X 589.639,Y 41.116,Z -2.727,A 34.018,B -0.000,C -0.000,E1 0.000,E2 850.000,E3 0.000,E4 0.000,E5 0.000,E6 0.000}
LIN {X 589.172,Y 41.551,Z -2.727,A 47.099,B -0.000,C -0.000,E1 0.000,E2 850.000,E3 0.000,E4 0.000,E5 0.000,E6 0.000}
LIN {X 587.874,Y 41.533,Z -2.727,A 90.777,B -0.000,C -0.000,E1 0.000,E2 850.000,E3 0.000,E4 0.000,E5 0.000,E6 0.000}
LIN {X 587.874,Y 41.322,Z -2.727,A 179.940,B -0.000,C 0.000,E1 0.000,E2 850.000,E3 0.000,E4 0.000,E5 0.000,E6 0.000}
LIN {X 587.829,Y 41.265,Z -2.727,A 141.868,B -0.000,C -0.000,E1 0.000,E2 850.000,E3 0.000,E4 0.000,E5 0.000,E6 0.000}
LIN {X 587.763,Y 41.292,Z -2.727,A 68.282,B -0.000,C 0.000,E1 0.000,E2 850.000,E3 0.000,E4 0.000,E5 0.000,E6 0.000}
LIN {X 587.364,Y 41.942,Z -2.727,A 31.489,B -0.000,C -0.000,E1 0.000,E2 850.000,E3 0.000,E4 0.000,E5 0.000,E6 0.000}
LIN {X 587.356,Y 41.980,Z -2.727,A 12.865,B -0.000,C -0.000,E1 0.000,E2 850.000,E3 0.000,E4 0.000,E5 0.000,E6 0.000}
LIN {X 587.372,Y 42.015,Z -2.727,A -24.384,B -0.000,C -0.000,E1 0.000,E2 850.000,E3 0.000,E4 0.000,E5 0.000,E6 0.000}
LIN {X 587.452,Y 42.101,Z -2.727,A -43.008,B -0.000,C -0.000,E1 0.000,E2 850.000,E3 0.000,E4 0.000,E5 0.000,E6 0.000}
LIN {X 587.472,Y 42.115,Z -2.727,A -54.757,B -0.000,C 0.000,E1 0.000,E2 850.000,E3 0.000,E4 0.000,E5 0.000,E6 0.000}
LIN {X 587.496,Y 42.120,Z -2.727,A -78.257,B -0.000,C -0.000,E1 0.000,E2 850.000,E3 0.000,E4 0.000,E5 0.000,E6 0.000}
LIN {X 587.754,Y 42.120,Z -2.727,A -90.005,B -0.000,C 0.000,E1 0.000,E2 850.000,E3 0.000,E4 0.000,E5 0.000,E6 0.000}
LIN {X 587.754,Y 42.530,Z -2.727,A 0.001,B -0.000,C -0.000,E1 0.000,E2 850.000,E3 0.000,E4 0.000,E5 0.000,E6 0.000}
LIN {X 587.771,Y 42.572,Z -2.727,A -22.282,B -0.000,C 0.000,E1 0.000,E2 850.000,E3 0.000,E4 0.000,E5 0.000,E6 0.000}
LIN {X 587.813,Y 42.590,Z -2.727,A -66.841,B -0.000,C -0.000,E1 0.000,E2 850.000,E3 0.000,E4 0.000,E5 0.000,E6 0.000}
LIN {X 588.230,Y 42.596,Z -2.727,A -89.121,B -0.000,C -0.000,E1 0.000,E2 850.000,E3 0.000,E4 0.000,E5 0.000,E6 0.000}
LIN {X 588.150,Y 43.273,Z -2.727,A 6.741,B -0.000,C 0.000,E1 0.000,E2 850.000,E3 0.000,E4 0.000,E5 0.000,E6 0.000}
LIN {X 587.767,Y 43.297,Z -2.727,A 86.493,B -0.000,C 0.000,E1 0.000,E2 850.000,E3 0.000,E4 0.000,E5 0.000,E6 0.000}
LIN {X 587.579,Y 43.213,Z -2.727,A 114.052,B -0.000,C -0.000,E1 0.000,E2 850.000,E3 0.000,E4 0.000,E5 0.000,E6 0.000}
LIN {X 587.555,Y 43.208,Z -2.727,A 102.024,B -0.000,C -0.000,E1 0.000,E2 850.000,E3 0.000,E4 0.000,E5 0.000,E6 0.000}
LIN {X 587.154,Y 43.208,Z -2.727,A 89.996,B -0.000,C 0.000,E1 0.000,E2 850.000,E3 0.000,E4 0.000,E5 0.000,E6 0.000}
LIN {X 587.126,Y 43.215,Z -2.727,A 76.189,B -0.000,C 0.000,E1 0.000,E2 850.000,E3 0.000,E4 0.000,E5 0.000,E6 0.000}
LIN {X 587.104,Y 43.234,Z -2.727,A 48.575,B -0.000,C 0.000,E1 0.000,E2 850.000,E3 0.000,E4 0.000,E5 0.000,E6 0.000}
LIN {X 586.647,Y 43.208,Z -2.727,A 93.216,B -0.000,C -0.000,E1 0.000,E2 850.000,E3 0.000,E4 0.000,E5 0.000,E6 0.000}
LIN {X 586.588,Y 43.246,Z -2.727,A 57.258,B -0.000,C 0.000,E1 0.000,E2 850.000,E3 0.000,E4 0.000,E5 0.000,E6 0.000}
LIN {X 586.606,Y 43.314,Z -2.727,A -14.660,B -0.000,C -0.000,E1 0.000,E2 850.000,E3 0.000,E4 0.000,E5 0.000,E6 0.000}
LIN {X 586.690,Y 43.383,Z -2.727,A -50.618,B -0.000,C -0.000,E1 0.000,E2 850.000,E3 0.000,E4 0.000,E5 0.000,E6 0.000}
LIN {X 586.717,Y 44.675,Z -2.727,A -1.198,B -0.000,C 0.000,E1 0.000,E2 850.000,E3 0.000,E4 0.000,E5 0.000,E6 0.000}
LIN {X 586.534,Y 44.675,Z -2.727,A 90.000,B -0.000,C 0.000,E1 0.000,E2 850.000,E3 0.000,E4 0.000,E5 0.000,E6 0.000}
LIN {X 586.494,Y 43.354,Z -2.727,A 178.239,B -0.000,C 0.000,E1 0.000,E2 850.000,E3 0.000,E4 0.000,E5 0.000,E6 0.000}
LIN {X 586.501,Y 42.847,Z -2.727,A -179.166,B -0.000,C -0.000,E1 0.000,E2 850.000,E3 0.000,E4 0.000,E5 0.000,E6 0.000}
LIN {X 586.902,Y 41.668,Z -2.727,A -161.223,B -0.000,C -0.000,E1 0.000,E2 850.000,E3 0.000,E4 0.000,E5 0.000,E6 0.000}
LIN {X 586.898,Y 41.622,Z -2.727,A 175.967,B -0.000,C 0.000,E1 0.000,E2 850.000,E3 0.000,E4 0.000,E5 0.000,E6 0.000}
LIN {X 586.863,Y 41.592,Z -2.727,A 130.345,B -0.000,C -0.000,E1 0.000,E2 850.000,E3 0.000,E4 0.000,E5 0.000,E6 0.000}
LIN {X 586.434,Y 41.456,Z -2.727,A 107.535,B -0.000,C 0.000,E1 0.000,E2 850.000,E3 0.000,E4 0.000,E5 0.000,E6 0.000}
LIN {X 586.394,Y 41.457,Z -2.727,A 88.316,B -0.000,C 0.000,E1 0.000,E2 850.000,E3 0.000,E4 0.000,E5 0.000,E6 0.000}
LIN {X 586.364,Y 41.483,Z -2.727,A 49.880,B -0.000,C 0.000,E1 0.000,E2 850.000,E3 0.000,E4 0.000,E5 0.000,E6 0.000}
LIN {X 585.628,Y 42.856,Z -2.727,A 28.175,B -0.000,C 0.000,E1 0.000,E2 850.000,E3 0.000,E4 0.000,E5 0.000,E6 0.000}
LIN {X 585.015,Y 44.287,Z -2.727,A 23.201,B -0.000,C -0.000,E1 0.000,E2 850.000,E3 0.000,E4 0.000,E5 0.000,E6 0.000}
LIN {X 584.528,Y 45.767,Z -2.727,A 18.226,B -0.000,C 0.000,E1 0.000,E2 850.000,E3 0.000,E4 0.000,E5 0.000,E6 0.000}
